!!!!SEGMENT: pl-sa--190-a-v-20--002_pych-leopold--missa-in-d-kyrie.krn
!!!cenid: 17xx:1574
!!!COM: Pych, Leopold
!!!COM-rismID:
!!!CDT: <1758->1774
!!!CNT:
!!!OPR: Missa in D
!!!OTL: Kyrie
!!!OMV: 002
!!!PDT:
!!!AGN: Sacred; Mass
!!!SMS-siglum: PL-SA
!!!SMS-shelfmark: 190/A V 20
!!!SMS-shelfwork: 001-002 M
!!!SMS-variant:
!!!SMS-altvar:
!!!NIFC-rismSourceID: 1001035913
!!!NIFC-islandoraID:
!!!URL-pdf-islandora:
!!!URL-scan: https://bc.bdsandomierz.pl/dlibra/publication/1527/edition/1495/content @EN{Scan on Cyfrowa Biblioteka Diecezjalna w Sandomierzu} @PL{Skany w portalu Cyfrowa Biblioteka Diecezjalna w Sandomierzu}
!!!ONB-nifc: UWAGA: części Mszy: 1. Sinfonia, 2. Kyrie, 3. Gloria, 4. Credo, 5. Sanctus, 6. Osanna, 7. Benedictus, 8. Agnus Dei, 9. Dona nobis
!!!AIN: 1 alto 1 bass 2 cor 1 tenor 2 violn
!!!key: D
**kern	**fba	**dynam	**kern	**dynam	**kern	**dynam	**kern	**text	**kern	**text	**kern	**text	**kern	**kern
*part8	*	*part8	*part7	*part7	*part6	*part6	*part5	*part5	*part4	*part4	*part3	*part3	*part2	*part1
*staff8	*	*	*staff7	*	*staff6	*	*staff5	*staff5	*staff4	*staff4	*staff3	*staff3	*staff2	*staff1
*I"Fundamento	*	*	*I"Violino 2do:	*	*I"Violino Primo:	*	*I"Baſso	*	*I"Tenore.	*	*I"Alto	*	*I"Cornu 2do ex Di	*I"Cornu Primo Ex D#
*I'Bc	*	*	*I'Vl II	*	*I'Vl I	*	*I'B	*	*I'T	*	*I'A	*	*I'Cor II in D	*I'Cor I in D
*	*	*	*Ivioln	*	*Ivioln	*	*Ibass	*	*Itenor	*	*Ialto	*	*Icor	*Icor
*ICklav	*	*	*ICstr	*	*ICstr	*	*ICvox	*	*ICvox	*	*ICvox	*	*ICbras	*ICbras
*clefF4	*	*	*clefG2	*	*clefG2	*	*clefF4	*	*clefC4	*	*clefC3	*	*clefG2	*clefG2
*	*	*	*	*	*	*	*	*	*	*	*	*	*ITrd6c10	*ITrd6c10
*k[f#c#]	*	*	*k[f#c#]	*	*k[f#c#]	*	*k[f#c#]	*	*k[c#f#]	*	*k[f#c#]	*	*k[f#c#]	*k[f#c#]
*D:	*	*	*D:	*	*D:	*	*D:	*	*	*	*D:	*	*	*
*M4/4	*	*	*M4/4	*	*M4/4	*	*M4/4	*	*M4/4	*	*M4/4	*	*M4/4	*M4/4
*met(c)	*	*	*met(c)	*	*met(c)	*	*met(c)	*	*met(c)	*	*met(c)	*	*met(c)	*met(c)
=1	=1	=1	=1	=1	=1	=1	=1	=1	=1	=1	=1	=1	=1	=1
*	*	*	*4\right	*	*4\right	*	*4\right	*	*4\right	*	*4\right	*	*4\right	*4\right
!	!	!	!	!	!	!	!	!	!	!	!	!	!	!LO:TX:t=P:problem=kłopot z przesunięciem taków w Vl I t. 6-10, 96-129
!	!	!	!	!	!	!	!	!	!	!	!	!	!	!LO:TX:t=P:f=for:global:problem
!	!	!	!	!	!	!	!	!	!	!	!	!	!	!LO:TX:t=P:p=pia:global:problem
!	!	!	!	!	!	!	!	!	!LO:TX:t=P:problem=kolejność znaków&colon; c# F#	!	!	!	!	!LO:TX:t=P:problem=4,8,16,32\middle or right&colon; global
!LO:TX:t=P:problem=metrum C.	!	!	!LO:TX:t=P:problem=metrum C.	!	!LO:TX:t=P:problem=metrum C.	!	!LO:TX:t=P:problem=metrum C.	!	!LO:TX:t=P:problem=metrum C.	!	!LO:TX:t=P:problem=metrum C.	!	!LO:TX:t=P:problem=metrum C.	!LO:TX:t=P:problem=metrum C.
!LO:TX:a:B:t=adagi tut	!	!	!LO:TX:a:B:t=adagi	!	!LO:TX:a:B:t=adagi	!	!LO:TX:a:B:t=adagio	!	!LO:TX:a:B:t=adagio	!	!LO:TX:a:B:t=adagio	!	!LO:TX:a:B:t=aDagio	!LO:TX:a:B:t=adagio
4.D/	.	.	4.ff#\	.	4.ddd\	.	4.D\	Kẏ-	4.d\	Kẏ-	4.a\	Kẏ-	4.f#\	4.a\
!	!	!	!	!	!	!	!LO:N:vis=4	!	!	!	!	!	!	!
*	*	*	*8\right	*	*8\right	*	*8\right	*	*8\right	*	*8\right	*	*8\right	*8\right
(8D/	.	.	8ff#\	.	8ddd\	.	8D\	-ri-	8d\	-ri-	8a\	-ri-	8f#\	8a\
4D/)	.	.	4ff#\	.	4ddd\	.	4D\	-e	4d\	-e	4a\	-e	4f#\	4a\
*4\right	*	*	*	*	*	*	*	*	*	*	*	*	*	*
4d\	.	.	4ff#\	.	4ddd\	.	4d\	e-	4d\	e-	4a\	e-	4f#\	4a\
!	!	!	!	!	!	!	!	!	!	!	!	!	!LO:LB:g=original	!
=2	=2	=2	=2	=2	=2	=2	=2	=2	=2	=2	=2	=2	=2	=2
*2\right	*	*	*	*	*2\right	*	*2\right	*	*2\right	*	*2\right	*	*2\right	*2\right
2cn\	4 2	.	4aa\	.	2ff#\	.	2cn\	-lei-	2d\	-lei-	2a\	-lei-	2f#\	2a\
*	*	*	*2\right	*	*	*	*	*	*	*	*	*	*	*
.	.	.	2dd\	.	.	.	.	.	.	.	.	.	.	.
4B\	6	.	.	.	4gg\	.	4B\	-son	4d\	-son	4b\	-son	4g\	4b\
[<4G\	3	.	4dd\	.	4bb\	.	4G\	e-	4B\	e-	4g\	e-	4d\	4d\
=3	=3	=3	=3	=3	=3	=3	=3	=3	=3	=3	=3	=3	=3	=3
4G\]	4 2	.	4cc#\	.	2aa\	.	4G\	-lei-	4c#\	-lei-	2a\	-lei-	4A/	4e\
4F#\	6	.	[4dd\	.	.	.	4F#\	.	2d\	.	.	.	2d\	4f#\
4E\	2	.	4dd\]	.	2gg\	.	4E\	.	.	.	4b\	.	.	2gT\
4A\	2	.	4cc#\	.	.	.	4A\	.	[4c#\	.	4g\	.	4e\	.
=4	=4	=4	=4	=4	=4	=4	=4	=4	=4	=4	=4	=4	=4	=4
2D\	6 5	.	8cc#\L	.	2ff#\	.	2D/	-son	4c#\]	.	2a\	.	4f#\	4f#\
*	*	*	*16\right	*	*	*	*	*	*	*	*	*	*	*
.	.	.	16b\L	.	.	.	.	.	.	.	.	.	.	.
.	.	.	16a\JJ	.	.	.	.	.	.	.	.	.	.	.
.	.	.	4g#X/	.	.	.	.	.	2B\	.	.	.	4r	4r
4D\	4 2	.	4a/	.	4.ee\	.	4D/	ki-	.	.	4g#X\	.	4e\	4e\
4C#\	6	.	4ee\	.	.	.	4C#/	-ri-	4c#\	.	4a\	.	4r	4r
.	.	.	.	.	8aa\	.	.	.	.	.	.	.	.	.
!	!	!	!	!	!LO:LB:g=original	!	!	!	!	!	!	!	!	!
!	!	!	!	!	!	!	!	!	!	!	!	!	!	!LO:LB:g=original
=5	=5	=5	=5	=5	=5	=5	=5	=5	=5	=5	=5	=5	=5	=5
4D\	6 5	.	4ff#\	.	4aa\	.	4D\	-e	2B\	.	4a\	.	2r	2r
4E\	2 #	.	4dd\	.	4gg#X\	.	4E\	e-	.	.	4g#X\	.	.	.
4F#\	5	.	4cc#\	.	4aa\	.	(4F#\	-lei-	4A\	.	4a\	-son	4r	4r
4D\	6 5	.	4b\	.	4aa\	.	4D\)	.	4f#\	.	4a\	e-	4f#\	4a\
!	!	!	!	!	!	!	!	!	!	!	!LO:LB:g=original	!	!	!
!	!	!	!	!	!	!	!	!	!LO:LB:g=original	!	!	!	!	!
!	!	!	!	!	!	!	!LO:LB:g=original	!	!	!	!	!	!	!
=6	=6	=6	=6	=6	=6	=6	=6	=6	=6	=6	=6	=6	=6	=6
!	!	!	!	!	!LO:TX:t=P:problem=brak taktu; między taktem 5 a 7 ligatura	!	!	!	!	!	!	!	!	!LO:TX:t=P:problem=brak zgodności pionów w takcie
4E\	4	.	4dd#X\	.	1ryy	.	2E\	-son	2e\	son	2g#X\	-lei-	2eT\	2g#Xt\
4EE/	#	.	2b\	.	.	.	.	.	.	.	.	.	.	.
4AA/	2	.	.	.	.	.	4AA/	e-	4e\	ki-	4a\	-son	4e\	4a\
4A\	#	.	4cc#\	.	.	.	4A\	.	4e\	-ri-	[<4a\	e-	4r	4r
!LO:LB:g=original	!	!	!	!	!	!	!	!	!	!	!	!	!	!
=7	=7	=7	=7	=7	=7	=7	=7	=7	=7	=7	=7	=7	=7	=7
!	!	!	!	!	!	!	!	!	!	!	!	!	!LO:TX:t=P:problem=łuk nad nutą	!LO:TX:t=P:problem=łuk nad 1
!	!	!	!	!	!	!	!	!	!	!	!	!	!LO:TX:a:t=1	!LO:TX:a:t=1
2B-X\	6	.	2dd\	.	4aa\	.	2B-X\	-lei-	2d\	-e	4a\]	.	1r	1r
.	.	.	.	.	2ggn\	.	.	.	.	.	2g\	-lei-	.	.
4C#X/	6 5	.	4ee\	.	.	.	4C#X/	-son	4A/	e-	.	.	.	.
4D/	-	.	4a/	.	[4ffn\	.	4D/	e-	4A/	.	4fn\	.	.	.
=8	=8	=8	=8	=8	=8	=8	=8	=8	=8	=8	=8	=8	=8	=8
*	*	*	*	*	*^	*	*	*	*	*	*	*	*	*
!	!	!	!	!	!	!	!	!	!	!	!	!LO:TX:a:t=SIC&colon;s=2fn	!	!	!
2GG#X/	n2	.	2dd\	.	2ff/]	2g#X\	.	2GG#X/	-lei-	2Bn\	-lei-	2f#\	.	4r	4r
.	.	.	.	.	.	.	.	.	.	.	.	.	.	4D/	4D/
4AA/	#	.	4cc#\	.	4ee/	2a\	.	4AA/	.	4A\	.	4e\	.	4AA/	4AA/
4AA/	-6 4	.	4fn/	.	4dd/	.	.	4AA/	.	4d\	.	4fn\	.	4AA/	4AA/
=9	=9	=9	=9	=9	=9	=9	=9	=9	=9	=9	=9	=9	=9	=9	=9
!	!	!	!LO:SIC:s=2fn	!	!	!	!	!	!	!	!	!	!	!	!
2AA/	-6 4	.	2f#/	.	2ee/	2g#X\	.	2AA/	.	2B\	.	2fn\	.	4AA/	4AA/
.	.	.	.	.	.	.	.	.	.	.	.	.	.	8AA/L	8AA/L
.	.	.	.	.	.	.	.	.	.	.	.	.	.	8AA/J	8AA/J
!	!	!	!	!	!	!	!	!	!	!	!	!	!	!	!LO:TX:t=P:problem=znak repetycji
2AA/	#	.	2e;/	.	2cc#/	2a\	.	2AA/	-son	2c#;\	-son	2e\	-son	2AA;/	2AA;/
*	*	*	*	*	*v	*v	*	*	*	*	*	*	*	*	*
!	!	!	!	!	!	!	!	!	!	!	!	!	!	!LO:LB:g=original
=10	=10	=10	=10	=10	=10	=10	=10	=10	=10	=10	=10	=10	=10	=10
!LO:TX:t=P:problem=brak taktu	!	!	!LO:TX:t=P:problem=brak taktu	!	!	!	!LO:TX:t=P:problem=brak taktu	!	!LO:TX:t=P:problem=brak taktu	!	!LO:TX:t=P:problem= brak taktu	!	!LO:TX:t=P:problem=brak taktu	!LO:TX:t=P:problem=brak taktu
1AA	.	.	1ryy	.	1a;	.	1ryy	.	1ryy	.	1ryy	.	1ryy	1ryy
!	!	!	!	!	!	!	!	!	!	!	!	!	!	!LO:LB:g=original
=11||	=11||	=11||	=11||	=11||	=11||	=11||	=11||	=11||	=11||	=11||	=11||	=11||	=11||	=11||
*k[b-]	*	*	*k[b-]	*	*k[b-]	*	*k[b-]	*	*k[b-]	*	*k[b-]	*	*	*
*F:	*	*	*F:	*	*F:	*	*F:	*	*	*	*F:	*	*	*
*M4/4	*	*	*M4/4	*	*M4/4	*	*M4/4	*	*M4/4	*	*M4/4	*	*M4/4	*M4/4
*met(c)	*	*	*met(c)	*	*met(c)	*	*met(c)	*	*met(c)	*	*met(c)	*	*met(c)	*met(c)
*8\right	*	*	*	*	*16\right	*	*	*	*	*	*	*	*	*
!LO:TX:t=P:problem=metrum C.	!	!	!LO:TX:t=P:problem=metrum C.	!	!	!	!	!	!	!	!	!	!	!
!LO:TX:b:t=Christe	!	!	!LO:TX:b:t=Chri.te	!	!	!	!	!	!	!	!	!	!	!
!LO:TX:a:t=Solo	!	!	!LO:TX:a:B:t=andan	!	!LO:TX:t=P:problem=metrum C.	!	!LO:TX:t=P:problem=metrum C.	!	!	!	!LO:TX:t=P:problem=metrum C.	!	!	!
!LO:TX:a:B:t=andante	!	!	!LO:TX:a:t=Solo	!	!LO:TX:a:t=Solo	!	!LO:TX:a:t=Tacet	!	!LO:TX:a:t=Christe Tacet	!	!LO:TX:a:t=Tacet	!	!LO:TX:a:t=Christe Tacet	!LO:TX:a:t=Christe Tacet
8r	.	.	16.dd\LL	.	16.dd\LL	.	1ryy	.	1ryy	.	1ryy	.	1ryy	1ryy
*	*	*	*32\right	*	*32\right	*	*	*	*	*	*	*	*	*
.	.	.	32a\JJk	.	32a\JJk	.	.	.	.	.	.	.	.	.
8D\L	.	.	8a/	.	8a/	.	.	.	.	.	.	.	.	.
*	*	*	*24\right	*	*24\right	*	*	*	*	*	*	*	*	*
8F\	.	.	(24a\LL	.	(24a\LL	.	.	.	.	.	.	.	.	.
.	.	.	24bn\	.	24bn\	.	.	.	.	.	.	.	.	.
.	.	.	24cc#X\JJ)	.	24cc#X\JJ)	.	.	.	.	.	.	.	.	.
8D\J	.	.	(24dd\LL	.	(24dd\LL	.	.	.	.	.	.	.	.	.
.	.	.	24ee\	.	24ee\	.	.	.	.	.	.	.	.	.
*	*	*	*custos:b	*	*custos:b	*	*	*	*	*	*	*	*	*
!	!	!	!	!	!LO:TX:t=P:problem=wszystkie custos użyte jako łamanie pięciolinii	!	!	!	!	!	!	!	!	!
.	.	.	24ff\JJ)	.	24ff\JJ)	.	.	.	.	.	.	.	.	.
.	.	.	(<8qqff/	.	(<8qqff/	.	.	.	.	.	.	.	.	.
8r	.	.	4ee\)	.	4ee\)	.	.	.	.	.	.	.	.	.
8AA/L	#	.	.	.	.	.	.	.	.	.	.	.	.	.
8C#X/	.	.	(24a\LL	.	(24a\LL	.	.	.	.	.	.	.	.	.
.	.	.	24cc#X\	.	24cc#X\	.	.	.	.	.	.	.	.	.
.	.	.	24dd\JJ)	.	24dd\JJ)	.	.	.	.	.	.	.	.	.
*	*	*	*Xtuplet	*	*	*	*	*	*	*	*	*	*	*
8AA/J	.	.	(24ee\LL	.	(24ee\LL	.	.	.	.	.	.	.	.	.
.	.	.	24ff\	.	24ff\	.	.	.	.	.	.	.	.	.
.	.	.	24gg\JJ)	.	24gg\JJ)	.	.	.	.	.	.	.	.	.
!	!	!	!	!	!	!	!	!	!	!	!LO:LB:g=original	!	!	!
!	!	!	!	!	!LO:LB:g=original	!	!	!	!	!	!	!	!	!
=12	=12	=12	=12	=12	=12	=12	=12	=12	=12	=12	=12	=12	=12	=12
8D\L	6 5	.	(32ff\KLL	.	(32ff\KLL	.	1ryy	.	1ryy	.	1ryy	.	1ryy	1ryy
.	.	.	16.dd\JJ)	.	16.dd\JJ)	.	.	.	.	.	.	.	.	.
8C#X\	.	.	(32bb-\KLL	.	(32bb-\KLL	.	.	.	.	.	.	.	.	.
.	.	.	16.gg\JJ)	.	16.gg\JJ)	.	.	.	.	.	.	.	.	.
8D\	.	.	(32ff\KLL	.	(32ff\KLL	.	.	.	.	.	.	.	.	.
.	.	.	16.ee\JJ)	.	16.ee\)	.	.	.	.	.	.	.	.	.
8A\J	#	.	(32dd\KLL	.	(32dd\K	.	.	.	.	.	.	.	.	.
.	.	.	16.cc#X\JJ)	.	16.cc#X\JJ)	.	.	.	.	.	.	.	.	.
.	.	.	(<8qqcc#/	.	(<8qqcc#/	.	.	.	.	.	.	.	.	.
8F\L	.	.	4dd\)	.	4dd\)	.	.	.	.	.	.	.	.	.
8D\	.	.	.	.	.	.	.	.	.	.	.	.	.	.
8F\	.	.	8r	.	8r	.	.	.	.	.	.	.	.	.
8A\J	#	.	8ccnX\	.	8ee\	.	.	.	.	.	.	.	.	.
=13	=13	=13	=13	=13	=13	=13	=13	=13	=13	=13	=13	=13	=13	=13
*	*	*	*Xtuplet	*	*	*	*	*	*	*	*	*	*	*
8r	.	.	(24dd\LL	.	(24ff\LL	.	1ryy	.	1ryy	.	1ryy	.	1ryy	1ryy
.	.	.	24ee\	.	24gg\	.	.	.	.	.	.	.	.	.
.	.	.	24ff\JJ)	.	24aa\JJ)	.	.	.	.	.	.	.	.	.
!	!	!LO:DY:a	!	!	!	!	!	!	!	!	!	!	!	!
!	!	!LO:DY:t=pia	!	!	!	!	!	!	!	!	!	!	!	!
8D\L	.	p	4.ff\	.	4.aa\	.	.	.	.	.	.	.	.	.
8F\	.	.	.	.	.	.	.	.	.	.	.	.	.	.
8D\J	.	.	.	.	.	.	.	.	.	.	.	.	.	.
*custos:D	*	*	*	*	*	*	*	*	*	*	*	*	*	*
8r	.	.	(24cc#X\LL	.	(24ee\LL	.	.	.	.	.	.	.	.	.
!LO:LB:g=original	!	!	!	!	!	!	!	!	!	!	!	!	!	!
.	.	.	24dd\	.	24ff\	.	.	.	.	.	.	.	.	.
.	.	.	24ee\JJ)	.	24gg\JJ)	.	.	.	.	.	.	.	.	.
8C#X/L	6 5	.	4.ee\	.	4.ggT\	.	.	.	.	.	.	.	.	.
8E/	.	.	.	.	.	.	.	.	.	.	.	.	.	.
8AA/J	#	.	.	.	.	.	.	.	.	.	.	.	.	.
=14	=14	=14	=14	=14	=14	=14	=14	=14	=14	=14	=14	=14	=14	=14
8D\L	2	.	(32ff\KLL	.	(32ff\KLL	.	1ryy	.	1ryy	.	1ryy	.	1ryy	1ryy
.	.	.	16.ee\)	.	16.ee\JJ)	.	.	.	.	.	.	.	.	.
8E\	.	.	(32gg\K	.	(32gg\KLL	.	.	.	.	.	.	.	.	.
.	.	.	16.ff\JJ)	.	16.ff\JJ)	.	.	.	.	.	.	.	.	.
8F\	6	.	(32aa\KLL	.	(32aa\KLL	.	.	.	.	.	.	.	.	.
.	.	.	16.gg\)	.	16.gg\JJ)	.	.	.	.	.	.	.	.	.
8G\J	.	.	(32bb-\K	.	(32bb-\KLL	.	.	.	.	.	.	.	.	.
.	.	.	16.dd\JJ)	.	16.dd\JJ)	.	.	.	.	.	.	.	.	.
!LO:TX:t=P:problem=mixed beam	!	!	!	!	!	!	!	!	!	!	!	!	!	!
.	.	.	(<8qqdd/	.	(<8qqdd/	.	.	.	.	.	.	.	.	.
8A/L	#	.	4cc#X\)	.	4cc#X\)	.	.	.	.	.	.	.	.	.
8AA/	.	.	.	.	.	.	.	.	.	.	.	.	.	.
8C#X/	.	.	8r	.	8r	.	.	.	.	.	.	.	.	.
!	!	!	!	!LO:DY:a	!	!LO:DY:a	!	!	!	!	!	!	!	!
!	!	!	!	!	!	!LO:DY:t=pia	!	!	!	!	!	!	!	!
!	!	!	!	!LO:DY:t=pia	!	!	!	!	!	!	!	!	!	!
8AA/J	.	.	8c#X/	p	8e/	p	.	.	.	.	.	.	.	.
!	!	!	!	!	!LO:LB:g=original	!	!	!	!	!	!	!	!	!
=15	=15	=15	=15	=15	=15	=15	=15	=15	=15	=15	=15	=15	=15	=15
8r	.	.	(24d/LL	.	(24f/LL	.	1ryy	.	1ryy	.	1ryy	.	1ryy	1ryy
.	.	.	24e/	.	24g/	.	.	.	.	.	.	.	.	.
.	.	.	24f/JJ)	.	24a/JJ)	.	.	.	.	.	.	.	.	.
!	!	!LO:DY:a	!	!	!	!	!	!	!	!	!	!	!	!
!	!	!LO:DY:t=pia	!	!	!	!	!	!	!	!	!	!	!	!
8D\L	.	p	4.f/	.	4.at/	.	.	.	.	.	.	.	.	.
8F\	.	.	.	.	.	.	.	.	.	.	.	.	.	.
8D\J	.	.	.	.	.	.	.	.	.	.	.	.	.	.
8r	.	.	(24c#X/LL	.	(24e/LL	.	.	.	.	.	.	.	.	.
.	.	.	24d/	.	24f/	.	.	.	.	.	.	.	.	.
.	.	.	24e/JJ)	.	24g/JJ)	.	.	.	.	.	.	.	.	.
8C#X/L	#	.	4.e/	.	4.gT/	.	.	.	.	.	.	.	.	.
8AA/	.	.	.	.	.	.	.	.	.	.	.	.	.	.
8C#/J	.	.	.	.	.	.	.	.	.	.	.	.	.	.
=16	=16	=16	=16	=16	=16	=16	=16	=16	=16	=16	=16	=16	=16	=16
!	!	!LO:DY:a	!LO:TX:t=P:problem=mixed beam	!	!	!	!	!	!	!	!	!	!	!
!	!	!LO:DY:t=for	!	!	!	!	!	!	!	!	!	!	!	!
4D\	.	f	24f/LL	.	24f/LL	.	1ryy	.	1ryy	.	1ryy	.	1ryy	1ryy
.	.	.	24dd/	.	24dd/	.	.	.	.	.	.	.	.	.
.	.	.	24cc#X/JJ	.	24cc#X/JJ	.	.	.	.	.	.	.	.	.
.	.	.	24dd\LL	.	24dd\LL	.	.	.	.	.	.	.	.	.
.	.	.	24gg\	.	24bb-\	.	.	.	.	.	.	.	.	.
.	.	.	24ff\JJ	.	24aa\JJ	.	.	.	.	.	.	.	.	.
.	.	.	(<8qqff/	.	(<8qqaa/	.	.	.	.	.	.	.	.	.
8r	.	.	16ee\KL)	.	16gg\KL)	.	.	.	.	.	.	.	.	.
.	.	.	8dd\	.	8ff\	.	.	.	.	.	.	.	.	.
8AA/	#	.	.	.	.	.	.	.	.	.	.	.	.	.
.	.	.	16cc#X\Jk	.	16ee\Jk	.	.	.	.	.	.	.	.	.
!	!	!	!LO:TX:t=P:problem=mixed beam	!	!LO:TX:t=P:problem=mixed beam	!	!	!	!	!	!	!	!	!
4D\	.	.	24dd/LL	.	24ff/LL	.	.	.	.	.	.	.	.	.
.	.	.	24d/	.	24d/	.	.	.	.	.	.	.	.	.
.	.	.	24c#X/JJ	.	24c#X/JJ	.	.	.	.	.	.	.	.	.
!	!	!	!	!	!LO:TX:t=P:problem=mixed beam	!	!	!	!	!	!	!	!	!
.	.	.	24d/LL	.	24d/LL	.	.	.	.	.	.	.	.	.
.	.	.	24g/	.	24b-/	.	.	.	.	.	.	.	.	.
.	.	.	24f/JJ	.	24a/JJ	.	.	.	.	.	.	.	.	.
.	.	.	(8qqf/	.	(8qqa/	.	.	.	.	.	.	.	.	.
8r	.	.	16e/KL)	.	16g/KL)	.	.	.	.	.	.	.	.	.
.	.	.	8d/	.	8f/	.	.	.	.	.	.	.	.	.
8AA/	#	.	.	.	.	.	.	.	.	.	.	.	.	.
.	.	.	16c#X/Jk	.	16e/Jk	.	.	.	.	.	.	.	.	.
=17	=17	=17	=17	=17	=17	=17	=17	=17	=17	=17	=17	=17	=17	=17
!LO:TX:t=P:problem=mixed beam	!	!	!LO:TX:t=P:problem=mixed beam	!	!LO:TX:t=P:problem=mixed beam	!	!	!	!	!	!	!	!	!
8D\L	.	.	24d/LL	.	24f/LL	.	1ryy	.	1ryy	.	1ryy	.	1ryy	1ryy
.	.	.	24dd/	.	24dd/	.	.	.	.	.	.	.	.	.
.	.	.	24a/JJ	.	24a/JJ	.	.	.	.	.	.	.	.	.
8G\	.	.	24b-\LL	.	24b-/LL	.	.	.	.	.	.	.	.	.
.	.	.	24a\	.	24a/	.	.	.	.	.	.	.	.	.
.	.	.	24g\JJ	.	24g/JJ	.	.	.	.	.	.	.	.	.
8A\	6 4	.	8f/L	.	8f/L	.	.	.	.	.	.	.	.	.
8AA\J	#	.	8e/J	.	8e/J	.	.	.	.	.	.	.	.	.
8D\L	.	.	8d/L	.	8d/L	.	.	.	.	.	.	.	.	.
8AA\J	.	.	8A/J	.	8A/J	.	.	.	.	.	.	.	.	.
!	!	!	!	!	!LO:TX:a:t=Verte Cito	!	!	!	!	!	!	!	!	!
4DD/	.	.	4d/	.	4d/	.	.	.	.	.	.	.	.	.
!	!	!	!	!	!LO:LB:g=original	!	!	!	!	!	!	!	!	!
=18	=18	=18	=18	=18	=18	=18	=18	=18	=18	=18	=18	=18	=18	=18
!	!	!	!	!	!LO:N:vis=8.	!LO:DY:a	!	!	!	!	!	!	!	!
!	!	!	!	!	!	!LO:DY:t=pia	!	!	!	!	!	!	!	!
8r	.	.	8r	.	16.dd\LL	p	1ryy	.	1ryy	.	1ryy	.	1ryy	1ryy
!	!	!	!	!	!LO:N:vis=16	!	!	!	!	!	!	!	!	!
.	.	.	.	.	32a\JJk	.	.	.	.	.	.	.	.	.
!	!	!LO:DY:a	!	!LO:DY:a	!	!	!	!	!	!	!	!	!	!
!	!	!	!	!LO:DY:t=pia	!	!	!	!	!	!	!	!	!	!
!	!	!LO:DY:t=pia	!	!	!	!	!	!	!	!	!	!	!	!
8D\L	.	p	8f/L	p	8a/	.	.	.	.	.	.	.	.	.
8F\	.	.	8a/	.	(24a\LL	.	.	.	.	.	.	.	.	.
.	.	.	.	.	24bn\	.	.	.	.	.	.	.	.	.
.	.	.	.	.	24cc#X\JJ)	.	.	.	.	.	.	.	.	.
8D\J	.	.	8f/J	.	(24dd\LL	.	.	.	.	.	.	.	.	.
.	.	.	.	.	24ee\	.	.	.	.	.	.	.	.	.
.	.	.	.	.	24ff\JJ)	.	.	.	.	.	.	.	.	.
.	.	.	.	.	(<8qqff/	.	.	.	.	.	.	.	.	.
8r	.	.	8r	.	4ee\)	.	.	.	.	.	.	.	.	.
8AA/L	#	.	8c#X/L	.	.	.	.	.	.	.	.	.	.	.
8C#X/	.	.	8e/	.	24a\LL	.	.	.	.	.	.	.	.	.
.	.	.	.	.	24cc#X\	.	.	.	.	.	.	.	.	.
.	.	.	.	.	24dd\JJ	.	.	.	.	.	.	.	.	.
!	!	!	!LO:TX:a:t=Verte Cito	!	!	!	!	!	!	!	!	!	!	!
8AA/J	.	.	8c#/J	.	24ee\LL	.	.	.	.	.	.	.	.	.
.	.	.	.	.	24ff\	.	.	.	.	.	.	.	.	.
.	.	.	.	.	24gg\JJ	.	.	.	.	.	.	.	.	.
=19	=19	=19	=19	=19	=19	=19	=19	=19	=19	=19	=19	=19	=19	=19
!LO:TX:t=P:problem=mixed beam	!	!	!	!	!	!	!	!	!	!	!	!	!	!
8D\L	.	.	8.a\L	.	(32ff\KLL	.	1ryy	.	1ryy	.	1ryy	.	1ryy	1ryy
.	.	.	.	.	16.dd\)	.	.	.	.	.	.	.	.	.
8G\	-	.	.	.	(32bb-\K	.	.	.	.	.	.	.	.	.
.	.	.	.	.	16.gg\JJ)	.	.	.	.	.	.	.	.	.
.	.	.	32dd\LL	.	.	.	.	.	.	.	.	.	.	.
.	.	.	32b-\JJJ	.	.	.	.	.	.	.	.	.	.	.
8A\	6 4	.	16a/LL	.	(32ff\KLL	.	.	.	.	.	.	.	.	.
.	.	.	.	.	16.ee\)	.	.	.	.	.	.	.	.	.
.	.	.	16g/	.	.	.	.	.	.	.	.	.	.	.
8AA\J	5 #	.	16f/	.	(32dd\K	.	.	.	.	.	.	.	.	.
.	.	.	.	.	16.cc#X\JJ)	.	.	.	.	.	.	.	.	.
.	.	.	16e/JJ	.	.	.	.	.	.	.	.	.	.	.
.	.	.	.	.	8qqcc#/	.	.	.	.	.	.	.	.	.
8D\L	.	.	8f/L	.	4dd\	.	.	.	.	.	.	.	.	.
8D\	.	.	8f/	.	.	.	.	.	.	.	.	.	.	.
8F\	.	.	8g/	.	8r	.	.	.	.	.	.	.	.	.
8A\J	#	.	8c#X/J	.	8ee\	.	.	.	.	.	.	.	.	.
!LO:LB:g=original	!	!	!	!	!	!	!	!	!	!	!	!	!	!
=20	=20	=20	=20	=20	=20	=20	=20	=20	=20	=20	=20	=20	=20	=20
8d\L	5	.	8d/L	.	8ff\L	.	1ryy	.	1ryy	.	1ryy	.	1ryy	1ryy
8d\	6	.	8a/	.	8ff\	.	.	.	.	.	.	.	.	.
8d\	.	.	8b-/	.	8ff\	.	.	.	.	.	.	.	.	.
8d\J	.	.	8b-/J	.	8ff\J	.	.	.	.	.	.	.	.	.
8cn\L	2	.	8a/L	.	8ee\L	.	.	.	.	.	.	.	.	.
8c\	6	.	8a/	.	8ee\	.	.	.	.	.	.	.	.	.
8c\	.	.	8a/	.	8ee\	.	.	.	.	.	.	.	.	.
8c\J	.	.	8a/J	.	8ee\J	.	.	.	.	.	.	.	.	.
=21	=21	=21	=21	=21	=21	=21	=21	=21	=21	=21	=21	=21	=21	=21
8B-\L	2	.	8a/L	.	8dd\L	.	1ryy	.	1ryy	.	1ryy	.	1ryy	1ryy
8B-\	6	.	8g/	.	8dd\	.	.	.	.	.	.	.	.	.
8B-\	.	.	8g/	.	8dd\	.	.	.	.	.	.	.	.	.
8B-\J	.	.	8g/J	.	8dd\J	.	.	.	.	.	.	.	.	.
8A\L	2	.	8g/L	.	8ccn\L	.	.	.	.	.	.	.	.	.
8A\	6	.	8f/	.	8cc\	.	.	.	.	.	.	.	.	.
8A\	.	.	8f/	.	8cc\	.	.	.	.	.	.	.	.	.
8A\J	.	.	8f/J	.	8cc\J	.	.	.	.	.	.	.	.	.
!	!	!	!	!	!LO:LB:g=original	!	!	!	!	!	!	!	!	!
=22	=22	=22	=22	=22	=22	=22	=22	=22	=22	=22	=22	=22	=22	=22
8G\L	2	.	8f/L	.	8b-\L	.	1ryy	.	1ryy	.	1ryy	.	1ryy	1ryy
8G\	.	.	8f/	.	8b-\	.	.	.	.	.	.	.	.	.
8C\	2	.	8e/	.	8b-\	.	.	.	.	.	.	.	.	.
8C\J	.	.	8e/J	.	8b-\J	.	.	.	.	.	.	.	.	.
4F\	.	.	4f/	.	8a\L	.	.	.	.	.	.	.	.	.
.	.	.	.	.	8cc\J	.	.	.	.	.	.	.	.	.
8r	.	.	8r	.	[4ff\	.	.	.	.	.	.	.	.	.
8A\	6	.	8cc\	.	.	.	.	.	.	.	.	.	.	.
=23	=23	=23	=23	=23	=23	=23	=23	=23	=23	=23	=23	=23	=23	=23
!LO:TX:t=P:problem=mixed beam	!	!	!	!	!	!	!	!	!	!	!	!	!	!
8G\L	2	.	8b-/L	.	8.ffT\L]	.	1ryy	.	1ryy	.	1ryy	.	1ryy	1ryy
8G\	.	.	8b-/	.	.	.	.	.	.	.	.	.	.	.
.	.	.	.	.	(32ee\LL	.	.	.	.	.	.	.	.	.
.	.	.	.	.	32ff\JJJ)	.	.	.	.	.	.	.	.	.
8C\	2	.	8b-/	.	8gg\L	.	.	.	.	.	.	.	.	.
8C\J	.	.	8e/J	.	8bb-\J	.	.	.	.	.	.	.	.	.
8F\L	n4 2	.	24f/LL	.	(32aa\LLL	.	.	.	.	.	.	.	.	.
.	.	.	.	.	32gg\	.	.	.	.	.	.	.	.	.
.	.	.	24a/	.	.	.	.	.	.	.	.	.	.	.
.	.	.	.	.	32ff\	.	.	.	.	.	.	.	.	.
.	.	.	24g/JJ	.	.	.	.	.	.	.	.	.	.	.
.	.	.	.	.	32ee\JJJ)	.	.	.	.	.	.	.	.	.
8F\J	.	.	24f/LL	.	24dd\LL	.	.	.	.	.	.	.	.	.
.	.	.	24e/	.	24cc\	.	.	.	.	.	.	.	.	.
.	.	.	24d/JJ	.	24bn\JJ	.	.	.	.	.	.	.	.	.
*24\right	*	*	*	*	*	*	*	*	*	*	*	*	*	*
(24E\LL	.	.	8e/L	.	8cc\L	.	.	.	.	.	.	.	.	.
24G\	.	.	.	.	.	.	.	.	.	.	.	.	.	.
24F\JJ)	.	.	.	.	.	.	.	.	.	.	.	.	.	.
(24E\LL	-5	.	8g/J	.	8b-X\J	.	.	.	.	.	.	.	.	.
24D\	.	.	.	.	.	.	.	.	.	.	.	.	.	.
24C\JJ)	.	.	.	.	.	.	.	.	.	.	.	.	.	.
=24	=24	=24	=24	=24	=24	=24	=24	=24	=24	=24	=24	=24	=24	=24
!LO:TX:t=P:problem=mixed beam	!	!	!	!	!	!	!	!	!	!	!	!	!	!
8F/L	.	.	4f/	.	4a/	.	1ryy	.	1ryy	.	1ryy	.	1ryy	1ryy
8FF/	.	.	.	.	.	.	.	.	.	.	.	.	.	.
!	!	!	!LO:LB:g=original	!	!	!	!	!	!	!	!	!	!	!
8C/	.	.	4et/	.	4gT/	.	.	.	.	.	.	.	.	.
8CC/J	.	.	.	.	.	.	.	.	.	.	.	.	.	.
!LO:TX:t=P:problem=mixed beam	!	!	!	!	!	!LO:DY:a	!	!	!	!	!	!	!	!
!	!	!LO:DY:t=for	!	!	!	!	!	!	!	!	!	!	!	!
8FF\L	.	f	16.ff\LL	.	16.ff\LL	f	.	.	.	.	.	.	.	.
.	.	.	32cc\JJk	.	32cc\JK	.	.	.	.	.	.	.	.	.
8F\	.	.	8ccT\	.	8ccT\J	.	.	.	.	.	.	.	.	.
8A\	.	.	24cc\LL	.	24cc\LL	.	.	.	.	.	.	.	.	.
.	.	.	24dd\	.	24dd\	.	.	.	.	.	.	.	.	.
.	.	.	24ee\JJ	.	24ee\JJ	.	.	.	.	.	.	.	.	.
8F\J	.	.	24ff\LL	.	24ff\LL	.	.	.	.	.	.	.	.	.
.	.	.	24gg\	.	24gg\	.	.	.	.	.	.	.	.	.
.	.	.	24aa\JJ	.	24aa\JJ	.	.	.	.	.	.	.	.	.
=25	=25	=25	=25	=25	=25	=25	=25	=25	=25	=25	=25	=25	=25	=25
.	.	.	(<8qqaa/	.	(<8qqaa/	.	.	.	.	.	.	.	.	.
8r	.	.	4gg\)	.	4ggT\)	.	1ryy	.	1ryy	.	1ryy	.	1ryy	1ryy
*16\right	*	*	*	*	*	*	*	*	*	*	*	*	*	*
16.E\LL	6	.	.	.	.	.	.	.	.	.	.	.	.	.
*32\right	*	*	*	*	*	*	*	*	*	*	*	*	*	*
32D\JJk	.	.	.	.	.	.	.	.	.	.	.	.	.	.
8E\L	.	.	24cc\LL	.	24cc\LL	.	.	.	.	.	.	.	.	.
.	.	.	24ee\	.	24ee\	.	.	.	.	.	.	.	.	.
.	.	.	24ff\JJ	.	24ff\JJ	.	.	.	.	.	.	.	.	.
*custos:D	*	*	*	*	*	*	*	*	*	*	*	*	*	*
8C\J	.	.	24gg\LL	.	24gg\LL	.	.	.	.	.	.	.	.	.
.	.	.	24aa\	.	24aa\	.	.	.	.	.	.	.	.	.
.	.	.	24bb-\JJ	.	24bb-\JJ	.	.	.	.	.	.	.	.	.
!LO:LB:g=original	!	!	!	!	!	!	!	!	!	!	!	!	!	!
4F\	.	.	24aa\LL	.	24aa\LL	.	.	.	.	.	.	.	.	.
.	.	.	24ff\	.	24ff\	.	.	.	.	.	.	.	.	.
.	.	.	24ee\JJ	.	24ee\JJ	.	.	.	.	.	.	.	.	.
.	.	.	24ff\LL	.	24ff\LL	.	.	.	.	.	.	.	.	.
.	.	.	24bb-\	.	24ddd\	.	.	.	.	.	.	.	.	.
*	*	*	*	*	*custos:b	*	*	*	*	*	*	*	*	*
.	.	.	24aa\JJ	.	24ccc\JJ	.	.	.	.	.	.	.	.	.
.	.	.	8qqaa/	.	.	.	.	.	.	.	.	.	.	.
!	!	!	!	!	!LO:LB:g=original	!	!	!	!	!	!	!	!	!
8r	.	.	16gg\KL	.	16bb-\KL	.	.	.	.	.	.	.	.	.
.	.	.	8ff\	.	8aa\	.	.	.	.	.	.	.	.	.
8C/	.	.	.	.	.	.	.	.	.	.	.	.	.	.
.	.	.	16ee\Jk	.	16gg\Jk	.	.	.	.	.	.	.	.	.
=26	=26	=26	=26	=26	=26	=26	=26	=26	=26	=26	=26	=26	=26	=26
!	!	!	!LO:TX:t=P:problem=mixed beam	!	!LO:TX:t=P:problem=mixed beam	!	!	!	!	!	!	!	!	!
4F\	.	.	24ff/LL	.	24aa/LL	.	1ryy	.	1ryy	.	1ryy	.	1ryy	1ryy
.	.	.	24f/	.	24f/	.	.	.	.	.	.	.	.	.
.	.	.	24e/JJ	.	24e/JJ	.	.	.	.	.	.	.	.	.
!	!	!	!	!	!LO:TX:t=P:problem=mixed beam	!	!	!	!	!	!	!	!	!
.	.	.	24f/LL	.	24f\LL	.	.	.	.	.	.	.	.	.
.	.	.	24b-/	.	24dd\	.	.	.	.	.	.	.	.	.
.	.	.	24a/JJ	.	(<24cc\JJ	.	.	.	.	.	.	.	.	.
.	.	.	(16qqa/	.	.	.	.	.	.	.	.	.	.	.
8r	.	.	16g/KL)	.	16b-\KL)	.	.	.	.	.	.	.	.	.
.	.	.	8f/	.	8a\	.	.	.	.	.	.	.	.	.
8C/	.	.	.	.	.	.	.	.	.	.	.	.	.	.
.	.	.	16e/Jk	.	16g\Jk	.	.	.	.	.	.	.	.	.
!LO:TX:t=P:problem=mixed beam	!	!	!	!	!	!	!	!	!	!	!	!	!	!
8F\L	.	.	16f/LL	.	24a\LL	.	.	.	.	.	.	.	.	.
.	.	.	.	.	24ff\	.	.	.	.	.	.	.	.	.
.	.	.	16a/JJ	.	.	.	.	.	.	.	.	.	.	.
.	.	.	.	.	24cc\JJ	.	.	.	.	.	.	.	.	.
8B-\	.	.	24b-\LL	.	24dd\LL	.	.	.	.	.	.	.	.	.
.	.	.	24a\	.	24cc\	.	.	.	.	.	.	.	.	.
.	.	.	24g\JJ	.	24b-\JJ	.	.	.	.	.	.	.	.	.
8c\	6	.	8f/L	.	8a/L	.	.	.	.	.	.	.	.	.
8C\J	5	.	8et/J	.	8g/J	.	.	.	.	.	.	.	.	.
=27	=27	=27	=27	=27	=27	=27	=27	=27	=27	=27	=27	=27	=27	=27
4F\	.	.	4f/	.	4f/	.	1ryy	.	1ryy	.	1ryy	.	1ryy	1ryy
8r	.	.	8r	.	8r	.	.	.	.	.	.	.	.	.
*	*	*	*custos:b	*	*	*	*	*	*	*	*	*	*	*
!	!	!LO:DY:a	!	!	!	!LO:DY:a	!	!	!	!	!	!	!	!
!	!	!	!	!	!	!LO:DY:t=pia	!	!	!	!	!	!	!	!
!	!	!LO:DY:t=pia	!	!	!	!	!	!	!	!	!	!	!	!
8F\	.	p	8a/	.	8ff\	p	.	.	.	.	.	.	.	.
!LO:TX:t=P:problem=mixed beam	!	!	!	!	!	!	!	!	!	!	!	!	!	!
!	!	!	!LO:LB:g=original	!	!	!	!	!	!	!	!	!	!	!
8c\L	.	.	(8.g/L	.	8.eet\L	.	.	.	.	.	.	.	.	.
8C\J	.	.	.	.	.	.	.	.	.	.	.	.	.	.
.	.	.	32a/LL	.	(32ff\LL	.	.	.	.	.	.	.	.	.
.	.	.	32b-/JJJ)	.	32gg\JJJ)	.	.	.	.	.	.	.	.	.
4F\	.	.	8a/L	.	8ff\L	.	.	.	.	.	.	.	.	.
.	.	.	8b-/J	.	8dd\J	.	.	.	.	.	.	.	.	.
=28	=28	=28	=28	=28	=28	=28	=28	=28	=28	=28	=28	=28	=28	=28
8r	.	.	(32a/LLL	.	(32cc\LLL	.	1ryy	.	1ryy	.	1ryy	.	1ryy	1ryy
.	.	.	32g/JJ	.	32b-\JJ	.	.	.	.	.	.	.	.	.
.	.	.	8.f/J)	.	8.a\J)	.	.	.	.	.	.	.	.	.
!LO:TX:t=P:problem=mixed beam	!	!	!	!	!	!	!	!	!	!	!	!	!	!
8F\L	.	.	.	.	.	.	.	.	.	.	.	.	.	.
8c\	.	.	(32e/LLL	.	(32g/LLL	.	.	.	.	.	.	.	.	.
.	.	.	32f/JJ	.	32a/JJ	.	.	.	.	.	.	.	.	.
.	.	.	8.g/J)	.	8.b-/J)	.	.	.	.	.	.	.	.	.
8C\J	.	.	.	.	.	.	.	.	.	.	.	.	.	.
.	.	.	8qqg/	.	(8qqb-/	.	.	.	.	.	.	.	.	.
8r	.	.	4f/	.	4a/)	.	.	.	.	.	.	.	.	.
8F\L	.	.	.	.	.	.	.	.	.	.	.	.	.	.
8A\	.	.	8r	.	8r	.	.	.	.	.	.	.	.	.
8F\J	.	.	8cc\	.	8cc\	.	.	.	.	.	.	.	.	.
!	!	!	!	!	!LO:LB:g=original	!	!	!	!	!	!	!	!	!
=29	=29	=29	=29	=29	=29	=29	=29	=29	=29	=29	=29	=29	=29	=29
8AA/L	6	.	8cc\L	.	8ee-X\L	.	1ryy	.	1ryy	.	1ryy	.	1ryy	1ryy
8AA/	.	.	8cc\	.	8ee-\	.	.	.	.	.	.	.	.	.
8AA/	.	.	8cc\	.	8ee-\	.	.	.	.	.	.	.	.	.
8AA/J	.	.	8cc\J	.	8ee-\J	.	.	.	.	.	.	.	.	.
8BB-/L	.	.	8f/L	.	8dd\L	.	.	.	.	.	.	.	.	.
8BB-/	.	.	8f/	.	8dd\	.	.	.	.	.	.	.	.	.
8BB-/	.	.	8f/	.	8dd\	.	.	.	.	.	.	.	.	.
8BB-/J	.	.	8f/J	.	8dd\J	.	.	.	.	.	.	.	.	.
=30	=30	=30	=30	=30	=30	=30	=30	=30	=30	=30	=30	=30	=30	=30
8BBn/L	6	.	8dd\L	.	8ff\L	.	1ryy	.	1ryy	.	1ryy	.	1ryy	1ryy
8BB/	.	.	8dd\	.	8ff\	.	.	.	.	.	.	.	.	.
8BB/	.	.	8dd\	.	8ff\	.	.	.	.	.	.	.	.	.
8BB/J	.	.	8dd\J	.	8ff\J	.	.	.	.	.	.	.	.	.
8C/L	.	.	8g/L	.	8een\L	.	.	.	.	.	.	.	.	.
8C/	.	.	8g/	.	8ee\	.	.	.	.	.	.	.	.	.
8C/	.	.	8g/	.	8ee\	.	.	.	.	.	.	.	.	.
8C/J	.	.	8g/J	.	8ee\J	.	.	.	.	.	.	.	.	.
=31	=31	=31	=31	=31	=31	=31	=31	=31	=31	=31	=31	=31	=31	=31
8C#X/L	6	.	8ee\L	.	8gg\L	.	1ryy	.	1ryy	.	1ryy	.	1ryy	1ryy
8C#/	.	.	8ee\	.	8gg\	.	.	.	.	.	.	.	.	.
8C#/	.	.	8ee\	.	8gg\	.	.	.	.	.	.	.	.	.
*custos:D	*	*	*	*	*	*	*	*	*	*	*	*	*	*
8C#/J	.	.	8ee\J	.	8gg\J	.	.	.	.	.	.	.	.	.
!LO:LB:g=original	!	!	!	!	!	!	!	!	!	!	!	!	!	!
8D/L	6 4	.	8a\L	.	8.ffT\L	.	.	.	.	.	.	.	.	.
8AA/	.	.	8dd\	.	.	.	.	.	.	.	.	.	.	.
.	.	.	.	.	(32ee\LL	.	.	.	.	.	.	.	.	.
.	.	.	.	.	32ff\JJJ)	.	.	.	.	.	.	.	.	.
.	.	.	.	.	8qqaa/	.	.	.	.	.	.	.	.	.
8E/	6	.	8cc#X\	.	8.ggT\L	.	.	.	.	.	.	.	.	.
8AA/J	.	.	8ee\J	.	.	.	.	.	.	.	.	.	.	.
.	.	.	.	.	(32ff\LL	.	.	.	.	.	.	.	.	.
.	.	.	.	.	32gg\JJJ)	.	.	.	.	.	.	.	.	.
=32	=32	=32	=32	=32	=32	=32	=32	=32	=32	=32	=32	=32	=32	=32
(8F\L	6	.	(8dd\L	.	8aa\L	.	1ryy	.	1ryy	.	1ryy	.	1ryy	1ryy
!	!	!	!LO:SIC:s=8cc#	!	!	!	!	!	!	!	!	!	!	!
8c#X\)	.	.	8cc\	.	8cc#X\J	.	.	.	.	.	.	.	.	.
8d\	.	.	8dd\	.	8dd\L	.	.	.	.	.	.	.	.	.
8B-X\J	.	.	8b-\J)	.	8b-\J	.	.	.	.	.	.	.	.	.
8G#X\L	.	.	8g#X/L	.	8g#X/L	.	.	.	.	.	.	.	.	.
8A\J	.	.	8a/J	.	8a/J	.	.	.	.	.	.	.	.	.
16A\LL	.	.	4r	.	4r	.	.	.	.	.	.	.	.	.
16Gn\	.	.	.	.	.	.	.	.	.	.	.	.	.	.
16F\	.	.	.	.	.	.	.	.	.	.	.	.	.	.
16E\JJ	.	.	.	.	.	.	.	.	.	.	.	.	.	.
!	!	!	!LO:LB:g=original	!	!	!	!	!	!	!	!	!	!	!
=33	=33	=33	=33	=33	=33	=33	=33	=33	=33	=33	=33	=33	=33	=33
!	!	!	!	!	!LO:N:vis=8.	!	!	!	!	!	!	!	!	!
8D\L	.	.	8r	.	16.dd\LL	.	1ryy	.	1ryy	.	1ryy	.	1ryy	1ryy
!	!	!	!	!	!LO:N:vis=16	!	!	!	!	!	!	!	!	!
.	.	.	.	.	32a\JJk	.	.	.	.	.	.	.	.	.
8D\	.	.	8f/L	.	8at/	.	.	.	.	.	.	.	.	.
!	!	!	!	!	!	!	!	!	!	!	!	!	!	!
*	*	*	*	*	*tuplet	*	*	*	*	*	*	*	*	*
8F\	.	.	8a/	.	(24a\LL	.	.	.	.	.	.	.	.	.
.	.	.	.	.	24bn\	.	.	.	.	.	.	.	.	.
.	.	.	.	.	24cc#X\JJ)	.	.	.	.	.	.	.	.	.
*	*	*	*	*	*Xtuplet	*	*	*	*	*	*	*	*	*
8D\J	.	.	8f/J	.	(24dd\LL	.	.	.	.	.	.	.	.	.
.	.	.	.	.	24ee\	.	.	.	.	.	.	.	.	.
.	.	.	.	.	24ff\JJ)	.	.	.	.	.	.	.	.	.
.	.	.	.	.	8qqff/	.	.	.	.	.	.	.	.	.
8r	.	.	8r	.	4ee\	.	.	.	.	.	.	.	.	.
8AA/L	#	.	8c#X/L	.	.	.	.	.	.	.	.	.	.	.
8C#X/	.	.	8e/	.	24a\LL	.	.	.	.	.	.	.	.	.
.	.	.	.	.	24cc#X\	.	.	.	.	.	.	.	.	.
.	.	.	.	.	24dd\JJ	.	.	.	.	.	.	.	.	.
8AA/J	.	.	8c#/J	.	24ee\LL	.	.	.	.	.	.	.	.	.
.	.	.	.	.	24ff\	.	.	.	.	.	.	.	.	.
.	.	.	.	.	24gg\JJ	.	.	.	.	.	.	.	.	.
!	!	!	!	!	!LO:LB:g=original	!	!	!	!	!	!	!	!	!
=34	=34	=34	=34	=34	=34	=34	=34	=34	=34	=34	=34	=34	=34	=34
!LO:TX:t=P:problem=mixed beam	!	!	!	!	!	!	!	!	!	!	!	!	!	!
8D\L	.	.	(32d/KLL	.	(32ff\KLL	.	1ryy	.	1ryy	.	1ryy	.	1ryy	1ryy
.	.	.	16.f/JJ)	.	16.dd\JJ)	.	.	.	.	.	.	.	.	.
8G\	.	.	(32dd\KLL	.	(32bb-\KLL	.	.	.	.	.	.	.	.	.
.	.	.	16.b-\JJ)	.	16.gg\JJ)	.	.	.	.	.	.	.	.	.
8A\	6 4	.	(32a/KLL	.	(32ff\KLL	.	.	.	.	.	.	.	.	.
.	.	.	16.g/	.	16.ee\JJ)	.	.	.	.	.	.	.	.	.
8AA\J	5 #	.	32f/K	.	(32dd\KLL	.	.	.	.	.	.	.	.	.
.	.	.	16.e/JJ)	.	16.cc#X\JJ)	.	.	.	.	.	.	.	.	.
4D\	.	.	8f/L	.	8dd\L	.	.	.	.	.	.	.	.	.
.	.	.	8a/J	.	8ff\J	.	.	.	.	.	.	.	.	.
4r	.	.	(32b-/KLL	.	(32gg\KLL	.	.	.	.	.	.	.	.	.
.	.	.	16.a/JJ)	.	16.ff\)	.	.	.	.	.	.	.	.	.
.	.	.	(32g/KLL	.	(32ee\K	.	.	.	.	.	.	.	.	.
.	.	.	16.f/JJ)	.	16.dd\JJ)	.	.	.	.	.	.	.	.	.
=35	=35	=35	=35	=35	=35	=35	=35	=35	=35	=35	=35	=35	=35	=35
8r	.	.	8e/	.	8cc#X\	.	1ryy	.	1ryy	.	1ryy	.	1ryy	1ryy
8A\	#	.	4cc#X\	.	4ee\	.	.	.	.	.	.	.	.	.
(32B-\KLL	.	.	.	.	.	.	.	.	.	.	.	.	.	.
16.A\JJ)	.	.	.	.	.	.	.	.	.	.	.	.	.	.
(32G\KLL	6	.	8dd\	.	8ff\	.	.	.	.	.	.	.	.	.
16.F\JJ)	.	.	.	.	.	.	.	.	.	.	.	.	.	.
!	!	!	!	!	!LO:N:vis=4	!	!	!	!	!	!	!	!	!
4E\	2	.	(8.ee#Xt\L	.	8ggT\	.	.	.	.	.	.	.	.	.
.	.	.	.	.	8.ggT\L	.	.	.	.	.	.	.	.	.
.	.	.	32cc#\LL	.	.	.	.	.	.	.	.	.	.	.
.	.	.	32dd\JJJ)	.	.	.	.	.	.	.	.	.	.	.
4A\	2 #	.	16ee#\LL	.	.	.	.	.	.	.	.	.	.	.
.	.	.	16dd\JJ	.	(32ff\LL	.	.	.	.	.	.	.	.	.
.	.	.	.	.	32gg\JJJ)	.	.	.	.	.	.	.	.	.
!	!	!	!LO:N:vis=4.	!	!	!	!	!	!	!	!	!	!	!
.	.	.	8cc#X\	.	(16aa\LL	.	.	.	.	.	.	.	.	.
.	.	.	.	.	16gg\JJ)	.	.	.	.	.	.	.	.	.
=36	=36	=36	=36	=36	=36	=36	=36	=36	=36	=36	=36	=36	=36	=36
4D\	.	.	(32dd\KLL	.	(32ff\KLL	.	1ryy	.	1ryy	.	1ryy	.	1ryy	1ryy
.	.	.	16.g\JJ)	.	16.dd\JJ)	.	.	.	.	.	.	.	.	.
.	.	.	(32e/KLL	.	(32cc#X\KLL	.	.	.	.	.	.	.	.	.
.	.	.	16.g/JJ)	.	16.ee\JJ)	.	.	.	.	.	.	.	.	.
8r	.	.	8f/L	.	8dd\L	.	.	.	.	.	.	.	.	.
*custos:D	*	*	*	*	*	*	*	*	*	*	*	*	*	*
!LO:TX:b:t=Verte Cito	!	!	!	!	!	!	!	!	!	!	!	!	!	!
8G\	.	.	8e/J	.	8g\J	.	.	.	.	.	.	.	.	.
!LO:LB:g=original	!	!	!	!	!	!	!	!	!	!	!	!	!	!
4A\	.	.	4d/	.	4f/	.	.	.	.	.	.	.	.	.
4AA/	.	.	4c#Xt/	.	4et/	.	.	.	.	.	.	.	.	.
!	!	!	!	!	!LO:LB:g=original	!	!	!	!	!	!	!	!	!
!	!	!	!LO:LB:g=original	!	!	!	!	!	!	!	!	!	!	!
=37	=37	=37	=37	=37	=37	=37	=37	=37	=37	=37	=37	=37	=37	=37
!	!	!LO:DY:a	!	!	!	!LO:DY:a	!	!	!	!	!	!	!	!
!	!	!	!	!	!	!LO:DY:t=for	!	!	!	!	!	!	!	!
!	!	!LO:DY:t=for	!	!	!	!	!	!	!	!	!	!	!	!
8D\L	.	f	16.dd\LL	.	16.dd\LL	f	1ryy	.	1ryy	.	1ryy	.	1ryy	1ryy
.	.	.	32a\JJk	.	32a\JJk	.	.	.	.	.	.	.	.	.
8D\	.	.	8at/	.	8a/	.	.	.	.	.	.	.	.	.
!	!	!	!	!	!	!	!	!	!	!	!	!	!	!
*	*	*	*	*	*tuplet	*	*	*	*	*	*	*	*	*
8F\	.	.	24a\LL	.	(24a\LL	.	.	.	.	.	.	.	.	.
.	.	.	24bn\	.	24bn\	.	.	.	.	.	.	.	.	.
.	.	.	24cc#X\JJ	.	24cc#X\JJ)	.	.	.	.	.	.	.	.	.
8D\J	.	.	24dd\LL	.	(24dd\LL	.	.	.	.	.	.	.	.	.
.	.	.	24ee\	.	24ee\	.	.	.	.	.	.	.	.	.
.	.	.	24ff\JJ	.	24ff\JJ)	.	.	.	.	.	.	.	.	.
.	.	.	(<8qqff/	.	(<8qqff/	.	.	.	.	.	.	.	.	.
8r	.	.	4ee\)	.	4ee\)	.	.	.	.	.	.	.	.	.
8AA/L	#	.	.	.	.	.	.	.	.	.	.	.	.	.
8C#X/	.	.	24a\LL	.	(24a\LL	.	.	.	.	.	.	.	.	.
.	.	.	24cc#X\	.	24cc#X\	.	.	.	.	.	.	.	.	.
.	.	.	24dd\JJ	.	24dd\JJ)	.	.	.	.	.	.	.	.	.
*	*	*	*	*	*Xtuplet	*	*	*	*	*	*	*	*	*
8AA/J	.	.	24ee\LL	.	(24ee\LL	.	.	.	.	.	.	.	.	.
.	.	.	24ff\	.	24ff\	.	.	.	.	.	.	.	.	.
.	.	.	24gg\JJ	.	24gg\JJ)	.	.	.	.	.	.	.	.	.
=38	=38	=38	=38	=38	=38	=38	=38	=38	=38	=38	=38	=38	=38	=38
8D\L	2	.	(32ff\KLL	.	(32ff\KLL	.	1ryy	.	1ryy	.	1ryy	.	1ryy	1ryy
.	.	.	16.dd\JJ)	.	16.dd\JJ)	.	.	.	.	.	.	.	.	.
8C#X\	.	.	(32bb-\KLL	.	(32bb-\KLL	.	.	.	.	.	.	.	.	.
.	.	.	16.gg\JJ)	.	16.gg\JJ)	.	.	.	.	.	.	.	.	.
8D\	#4 3	.	(32ff\KLL	.	(32ff\KLL	.	.	.	.	.	.	.	.	.
.	.	.	16.ee\JJ)	.	16.ee\	.	.	.	.	.	.	.	.	.
8G\J	.	.	(32dd\KLL	.	32dd\K	.	.	.	.	.	.	.	.	.
.	.	.	16.cc#X\JJ)	.	16.cc#X\JJ)	.	.	.	.	.	.	.	.	.
.	.	.	8qqcc#/	.	.	.	.	.	.	.	.	.	.	.
(32F\KLL	6	.	4dd\	.	4dd\	.	.	.	.	.	.	.	.	.
16.D\JJ)	.	.	.	.	.	.	.	.	.	.	.	.	.	.
(32B-\KLL	6	.	.	.	.	.	.	.	.	.	.	.	.	.
16.G\JJ)	.	.	.	.	.	.	.	.	.	.	.	.	.	.
(32F\KLL	.	.	8r	.	8r	.	.	.	.	.	.	.	.	.
16.E\JJ	.	.	.	.	.	.	.	.	.	.	.	.	.	.
32D\KLL	.	.	8cc#X\	.	8ee\	.	.	.	.	.	.	.	.	.
16.C#X\JJ)	.	.	.	.	.	.	.	.	.	.	.	.	.	.
=39	=39	=39	=39	=39	=39	=39	=39	=39	=39	=39	=39	=39	=39	=39
8D\L	.	.	(24dd\LL	.	(24ff\LL	.	1ryy	.	1ryy	.	1ryy	.	1ryy	1ryy
.	.	.	24ee\	.	24gg\	.	.	.	.	.	.	.	.	.
.	.	.	24ff\JJ)	.	24aa\JJ)	.	.	.	.	.	.	.	.	.
8D\	.	.	4.ff\	.	4.aa\	.	.	.	.	.	.	.	.	.
8F\	.	.	.	.	.	.	.	.	.	.	.	.	.	.
8D\J	.	.	.	.	.	.	.	.	.	.	.	.	.	.
8r	.	.	(24ccn\LL	.	(24ee\LL	.	.	.	.	.	.	.	.	.
.	.	.	24dd\	.	24ff\	.	.	.	.	.	.	.	.	.
.	.	.	24ee\JJ)	.	24gg\JJ)	.	.	.	.	.	.	.	.	.
8C#X/L	.	.	4.ee\	.	4.ggT\	.	.	.	.	.	.	.	.	.
8E/	.	.	.	.	.	.	.	.	.	.	.	.	.	.
8AA/J	.	.	.	.	.	.	.	.	.	.	.	.	.	.
=40	=40	=40	=40	=40	=40	=40	=40	=40	=40	=40	=40	=40	=40	=40
8D\L	.	.	(32ff\KLL	.	(32ff\KLL	.	1ryy	.	1ryy	.	1ryy	.	1ryy	1ryy
.	.	.	16.ee\JJ)	.	16.ee\JJ)	.	.	.	.	.	.	.	.	.
!	!	!	!LO:LB:g=original	!	!	!	!	!	!	!	!	!	!	!
8E\	.	.	(32gg\KLL	.	(32gg\KLL	.	.	.	.	.	.	.	.	.
!	!	!	!LO:N:vis=8	!	!	!	!	!	!	!	!	!	!	!
!	!	!	!LO:LB:g=original	!	!	!	!	!	!	!	!	!	!	!
.	.	.	16.ff\JJ)	.	16.ff\JJ)	.	.	.	.	.	.	.	.	.
8F\	.	.	(32aa\KLL	.	(32aa\KLL	.	.	.	.	.	.	.	.	.
.	.	.	16.gg\JJ)	.	16.gg\JJ)	.	.	.	.	.	.	.	.	.
8G\J	.	.	(32bb-\KLL	.	(32bb-\KLL	.	.	.	.	.	.	.	.	.
.	.	.	16.dd\JJ)	.	16.dd\JJ)	.	.	.	.	.	.	.	.	.
!LO:TX:t=P:problem=mixed beam	!	!	!	!	!	!	!	!	!	!	!	!	!	!
.	.	.	.	.	(<8qqdd/	.	.	.	.	.	.	.	.	.
8A/L	#	.	4cc#X\	.	4cc#X\)	.	.	.	.	.	.	.	.	.
8AA/	.	.	.	.	.	.	.	.	.	.	.	.	.	.
8C#X/	.	.	8r	.	8r	.	.	.	.	.	.	.	.	.
!	!	!	!	!LO:DY:a	!	!LO:DY:a	!	!	!	!	!	!	!	!
!	!	!	!	!	!	!LO:DY:t=pia	!	!	!	!	!	!	!	!
!	!	!	!	!LO:DY:t=pia	!	!	!	!	!	!	!	!	!	!
8AA/J	.	.	8c#X/	p	8e/	p	.	.	.	.	.	.	.	.
!LO:LB:g=original	!	!	!	!	!	!	!	!	!	!	!	!	!	!
=41	=41	=41	=41	=41	=41	=41	=41	=41	=41	=41	=41	=41	=41	=41
8r	.	.	(24d/LL	.	(24f/LL	.	1ryy	.	1ryy	.	1ryy	.	1ryy	1ryy
.	.	.	24e/	.	24g/	.	.	.	.	.	.	.	.	.
.	.	.	24f/JJ)	.	24a/JJ)	.	.	.	.	.	.	.	.	.
!	!	!LO:DY:a	!	!	!	!	!	!	!	!	!	!	!	!
!	!	!LO:DY:t=pia	!	!	!	!	!	!	!	!	!	!	!	!
8D\L	.	p	4.f/	.	4.at/	.	.	.	.	.	.	.	.	.
8F\	.	.	.	.	.	.	.	.	.	.	.	.	.	.
8D\J	.	.	.	.	.	.	.	.	.	.	.	.	.	.
!	!	!	!	!	!	!	!	!	!	!	!	!	!	!
8r	.	.	(24c#X/LL	.	(24e/LL	.	.	.	.	.	.	.	.	.
.	.	.	24d/	.	24f/	.	.	.	.	.	.	.	.	.
.	.	.	24e/JJ)	.	24g/JJ)	.	.	.	.	.	.	.	.	.
8AA\L	.	.	4.e/	.	4.gT/	.	.	.	.	.	.	.	.	.
8C#X\	.	.	.	.	.	.	.	.	.	.	.	.	.	.
8AA\J	.	.	.	.	.	.	.	.	.	.	.	.	.	.
=42	=42	=42	=42	=42	=42	=42	=42	=42	=42	=42	=42	=42	=42	=42
!	!	!LO:DY:a	!LO:TX:t=P:problem=mixed beam	!	!LO:TX:t=P:problem=mixed beam	!	!	!	!	!	!	!	!	!
!	!	!LO:DY:t=for	!	!	!	!	!	!	!	!	!	!	!	!
4D\	.	f	24f/LL	.	24f/LL	.	1ryy	.	1ryy	.	1ryy	.	1ryy	1ryy
.	.	.	24dd/	.	24dd/	.	.	.	.	.	.	.	.	.
.	.	.	24cc#X/JJ	.	24cc#X/JJ	.	.	.	.	.	.	.	.	.
.	.	.	24dd\LL	.	24dd\LL	.	.	.	.	.	.	.	.	.
.	.	.	24gg\	.	24bb-\	.	.	.	.	.	.	.	.	.
.	.	.	24ff\JJ	.	24aa\JJ	.	.	.	.	.	.	.	.	.
.	.	.	(<16qqff/	.	(<8qqaa/	.	.	.	.	.	.	.	.	.
8r	.	.	16ee\KL)	.	16gg\KL)	.	.	.	.	.	.	.	.	.
.	.	.	8dd\	.	8ff\	.	.	.	.	.	.	.	.	.
8AA/	#	.	.	.	.	.	.	.	.	.	.	.	.	.
.	.	.	16cc#X\Jk	.	16ee\Jk	.	.	.	.	.	.	.	.	.
!	!	!	!LO:TX:t=P:problem=mixed beam	!	!LO:TX:t=P:problem=mixed beam	!	!	!	!	!	!	!	!	!
4D\	.	.	24dd/LL	.	24ff/LL	.	.	.	.	.	.	.	.	.
.	.	.	24d/	.	24d/	.	.	.	.	.	.	.	.	.
!	!	!	!LO:SIC:s=16c#	!	!	!	!	!	!	!	!	!	!	!
.	.	.	24c/JJ	.	24c#X/JJ	.	.	.	.	.	.	.	.	.
!	!	!	!	!	!LO:TX:t=P:problem=mixed beam	!	!	!	!	!	!	!	!	!
.	.	.	24d/LL	.	24d/LL	.	.	.	.	.	.	.	.	.
.	.	.	24g/	.	24b-/	.	.	.	.	.	.	.	.	.
.	.	.	24f/JJ	.	24a/JJ	.	.	.	.	.	.	.	.	.
.	.	.	(16qqf/	.	(8qqa/	.	.	.	.	.	.	.	.	.
8r	.	.	16e/KL)	.	16g/KL)	.	.	.	.	.	.	.	.	.
.	.	.	8d/	.	8f/	.	.	.	.	.	.	.	.	.
8AA/	#	.	.	.	.	.	.	.	.	.	.	.	.	.
.	.	.	16c#X/Jk	.	16e/Jk	.	.	.	.	.	.	.	.	.
=43	=43	=43	=43	=43	=43	=43	=43	=43	=43	=43	=43	=43	=43	=43
!LO:TX:t=P:problem=mixed beam	!	!	!LO:TX:t=P:problem=mixed beam	!	!	!	!	!	!	!	!	!	!	!
8D\L	.	.	24d/LL	.	24f/LL	.	1ryy	.	1ryy	.	1ryy	.	1ryy	1ryy
.	.	.	24dd/	.	24dd/	.	.	.	.	.	.	.	.	.
.	.	.	24a/JJ	.	24a/JJ	.	.	.	.	.	.	.	.	.
8G\	.	.	24b-\LL	.	24b-/LL	.	.	.	.	.	.	.	.	.
.	.	.	24a\	.	24a/	.	.	.	.	.	.	.	.	.
*	*	*	*custos:b	*	*custos:b	*	*	*	*	*	*	*	*	*
!	!	!	!	!	!LO:LB:g=original	!	!	!	!	!	!	!	!	!
.	.	.	24g\JJ	.	24g/JJ	.	.	.	.	.	.	.	.	.
!	!	!	!LO:LB:g=original	!	!	!	!	!	!	!	!	!	!	!
8A\	6 4	.	8f/L	.	8f/L	.	.	.	.	.	.	.	.	.
8AA\J	#	.	8et/J	.	8e/J	.	.	.	.	.	.	.	.	.
8D/L	.	.	8d/L	.	8d/L	.	.	.	.	.	.	.	.	.
8AA/J	.	.	8A/J	.	8A/J	.	.	.	.	.	.	.	.	.
4DD/	.	.	4d/	.	4d/	.	.	.	.	.	.	.	.	.
!	!	!	!	!	!	!	!	!	!LO:LB:g=original	!	!	!	!	!
=44||	=44||	=44||	=44||	=44||	=44||	=44||	=44||	=44||	=44||	=44||	=44||	=44||	=44||	=44||
*k[f#c#]	*	*	*k[d#a#]	*	*k[f#c#]	*	*k[f#c#]	*	*k[f#f#c#]	*	*k[f#c#]	*	*	*
*D:	*	*	*D:	*	*D:	*	*D:	*	*	*	*D:	*	*	*
*M2/2	*	*	*M2/2	*	*M2/2	*	*M2/2	*	*M2/2	*	*M2/2	*	*M2/2	*M2/2
*met(c|)	*	*	*met(c|)	*	*met(c|)	*	*met(c|)	*	*met(c|)	*	*met(c|)	*	*met(c|)	*met(c|)
!	!	!	!	!	!	!	!	!	!	!	!	!	!	!LO:TX:t=P:problem= znak metrum zapisany w odbiciu lustrzanym
!	!	!	!LO:TX:t=P:problem=metrum zapisane w odbiciu lustrzanym	!	!	!	!	!	!	!	!	!	!	!
!	!	!	!LO:TX:t=P::problem=błędnie wpisane znaki&colon; dd# zamiast ff#, a# zamiast cc##	!	!LO:TX:b:t=Kirie	!	!	!	!	!	!	!	!	!LO:TX:b:t=Kirie
!LO:TX:b:t=Kirie	!	!	!LO:TX:b:t=Kirie	!	!LO:TX:t=P:znaki:problem= pod ff# dodany f#	!	!	!	!LO:TX:t=P:problem=kolejność znaków&colon; c# F#	!	!	!	!LO:TX:b:t=Kirie	!LO:TX:a:t=allabre
!	!	!	!	!	!	!	!LO:TX:t=P:problem=metrum zapisane w odbiciu lustrzanym	!	!	!	!	!	!	!
!	!	!	!	!	!	!	!	!	!LO:TX:t=P:problem= znak metrum zapisany w odbiciu lustrzanym	!	!	!	!	!
!LO:TX:t=P:problem=metrum zapisane w odbiciu lustrzanym	!	!	!	!	!	!	!	!	!	!	!	!	!LO:TX:t=P:problem= znak metrum zapisany w odbiciu lustrzanym	!
2e\	.	.	1r	.	2dd\	.	2d\	Ki-	2d\	Ki-	2a\	Ki-	2d\	2f#\
2c#\	6	.	.	.	2aa\	.	2c#\	-ri-	2e\	-ri-	2a\	-ri-	2A/	2e\
=45	=45	=45	=45	=45	=45	=45	=45	=45	=45	=45	=45	=45	=45	=45
2d\	.	.	1r	.	4ff#\	.	2d\	-e	2f#\	-e	2a\	-e	2d\	2f#\
.	.	.	.	.	4dd\	.	.	.	.	.	.	.	.	.
2F#\	.	.	.	.	[2ddd\	.	2F#\	e-	2d\	e-	2a\	e-	2f#\	2a\
=46	=46	=46	=46	=46	=46	=46	=46	=46	=46	=46	=46	=46	=46	=46
2G\	6 5	.	1r	.	4ddd\]	.	2G\	-lei-	1e	-lei-	2b\	-lei-	2e\	2g\
.	.	.	.	.	8ccc#\L	.	.	.	.	.	.	.	.	.
.	.	.	.	.	8bb\J	.	.	.	.	.	.	.	.	.
2A\	.	.	.	.	4aa\	.	2A\	.	.	.	2a\	.	2A/	2e\
.	.	.	.	.	4gg\	.	.	.	.	.	.	.	.	.
!LO:LB:g=original	!	!	!	!	!	!	!	!	!	!	!	!	!	!
=47	=47	=47	=47	=47	=47	=47	=47	=47	=47	=47	=47	=47	=47	=47
2D/	2	.	2a/	.	4ff#\	.	2D/	.	2.f#\	.	2.a\	.	2.d\	2.f#\
.	.	.	.	.	4dd\	.	.	.	.	.	.	.	.	.
2BB/	6|	.	2dd\	.	4ff#\	.	2BB/	.	.	.	.	.	.	.
.	.	.	.	.	4gg#X\	.	.	.	4e\	.	4g#X\	.	4e\	4e\
=48	=48	=48	=48	=48	=48	=48	=48	=48	=48	=48	=48	=48	=48	=48
4AA/	x 3_	.	4cc#\	.	2aa\	.	2AA/	-son	2e\	-son	2a\	-son	2A/	2e\
8C#/L	.	.	4a\	.	.	.	.	.	.	.	.	.	.	.
8BB/J	.	.	.	.	.	.	.	.	.	.	.	.	.	.
4C#/	.	.	[<2aa\	.	4r	.	2r	.	2c#\	e-	2a\	e-	2A/	2e\
4AA/	.	.	.	.	4ccc#\	.	.	.	.	.	.	.	.	.
=49	=49	=49	=49	=49	=49	=49	=49	=49	=49	=49	=49	=49	=49	=49
2D\	6 5	.	4aa\]	.	2bb\	.	1r	.	1B	-lei-	2a\	-lei-	2A/	2f#\
.	.	.	8gg#X\L	.	.	.	.	.	.	.	.	.	.	.
.	.	.	8ff#\J	.	.	.	.	.	.	.	.	.	.	.
2E\	#	.	4ee\	.	2gg#X\	.	.	.	.	.	2g#X\	.	2e\	2g#X\
.	.	.	4dd\	.	.	.	.	.	.	.	.	.	.	.
!	!	!	!	!	!	!	!	!	!	!	!	!	!LO:LB:g=original	!
=50	=50	=50	=50	=50	=50	=50	=50	=50	=50	=50	=50	=50	=50	=50
2AA/	.	.	4cc#\	.	4aa\	.	1r	.	2c#\	-son	2a\	-son	2e\	2a\
.	.	.	4a\	.	4a/	.	.	.	.	.	.	.	.	.
2r	.	.	4b\	.	2ggn\	.	.	.	2r	.	2r	.	4r	4r
.	.	.	4cc#\	.	.	.	.	.	.	.	.	.	4e\	4g\
!	!	!	!	!	!LO:LB:g=original	!	!	!	!	!	!	!	!	!
=51	=51	=51	=51	=51	=51	=51	=51	=51	=51	=51	=51	=51	=51	=51
*	*	*	*	*	*	*	*	*ij	*	*	*	*	*	*
2D\	.	.	2.dd\	.	4ff#\	.	2D\	Ki-	1r	.	1r	.	2d\	2f#\
.	.	.	.	.	4a/	.	.	.	.	.	.	.	.	.
2A\	.	.	.	.	2eeT\	.	2A\	-ri-	.	.	.	.	2A/	2e\
.	.	.	4cc#\	.	.	.	.	.	.	.	.	.	.	.
!	!	!	!LO:LB:g=original	!	!	!	!	!	!	!	!	!	!	!
=52	=52	=52	=52	=52	=52	=52	=52	=52	=52	=52	=52	=52	=52	=52
*	*	*	*k[f#c#]	*	*	*	*	*	*	*	*	*	*	*
4F#\	.	.	4dd\	.	2dd\	.	4F#\	-e	1r	.	1r	.	2F#/	2d\
4D\	.	.	4a/	.	.	.	4D\	e-	.	.	.	.	.	.
[<2d\	.	.	4f#/	.	4r	.	[<2d\	-lei-	.	.	.	.	2r	2r
.	.	.	4a/	.	4ff#\	.	.	.	.	.	.	.	.	.
!	!	!	!	!	!	!	!LO:LB:g=original	!	!	!	!	!	!	!
!	!	!	!	!	!	!	!	!	!	!	!	!	!	!LO:LB:g=original
=53	=53	=53	=53	=53	=53	=53	=53	=53	=53	=53	=53	=53	=53	=53
4d\]	#4 2	.	2g/	.	2ee\	.	4d\]	.	1r	.	1r	.	1r	1r
*	*	*	*	*	*	*	*8\right	*	*	*	*	*	*	*
8c#\L	.	.	.	.	.	.	8c#\L	.	.	.	.	.	.	.
8B\J	.	.	.	.	.	.	8B\J	.	.	.	.	.	.	.
4A\	3_ x	.	4e/	.	2cc#\	.	4A\	.	.	.	.	.	.	.
4G\	.	.	[4a/	.	.	.	4G\	.	.	.	.	.	.	.
=54	=54	=54	=54	=54	=54	=54	=54	=54	=54	=54	=54	=54	=54	=54
4F#\	6 x	.	4a/]	.	4dd\	.	4F#\	-son	2A\	Ki-	1r	.	1r	1r
4D\	.	.	4f#/	.	2dd\	.	4D\	e-	.	.	.	.	.	.
4F#\	.	.	4a/	.	.	.	4F#\	-lei-	2d\	-ri-	.	.	.	.
*	*	*	*	*	*	*	*	*Xij	*	*	*	*	*	*
4G#X\	6 5	.	4b/	.	8cc#\L	.	4G#X\	.	.	.	.	.	.	.
.	.	.	.	.	8b\J	.	.	.	.	.	.	.	.	.
!	!	!	!	!	!	!	!	!	!LO:LB:g=original	!	!	!	!	!
=55	=55	=55	=55	=55	=55	=55	=55	=55	=55	=55	=55	=55	=55	=55
2A\	.	.	8a/L	.	8cc#\L	.	2A\	-son	4c#\	-e	1r	.	1r	1r
.	.	.	8b/J	.	8dd\J	.	.	.	.	.	.	.	.	.
.	.	.	2cc#\	.	2ee\	.	.	.	4A\	e-	.	.	.	.
2C#/	6	.	.	.	.	.	2C#/	e-	[<2a\	-lei-	.	.	.	.
.	.	.	4a/	.	4a/	.	.	.	.	.	.	.	.	.
!LO:LB:g=original	!	!	!	!	!	!	!	!	!	!	!	!	!	!
=56	=56	=56	=56	=56	=56	=56	=56	=56	=56	=56	=56	=56	=56	=56
2D\	6 5	.	2a/	.	1bT	.	(2D/	-lei-	4a\]	.	1r	.	1r	1r
.	.	.	.	.	.	.	.	.	8g#X\L	.	.	.	.	.
.	.	.	.	.	.	.	.	.	8f#\J	.	.	.	.	.
2E\	#	.	2g#X/	.	.	.	2E\)	.	4e\	.	.	.	.	.
.	.	.	.	.	.	.	.	.	4d\	.	.	.	.	.
=57	=57	=57	=57	=57	=57	=57	=57	=57	=57	=57	=57	=57	=57	=57
2AA/	.	.	4a/	.	4a/	.	2AA/	-son	4c#\	-son	1r	.	1r	1r
.	.	.	4cc#/	.	4r	.	.	.	4A\	e-	.	.	.	.
2r	.	.	4dd\	.	2r	.	2r	.	4B\	-lei-	.	.	.	.
.	.	.	4ee\	.	.	.	.	.	4c#\	.	.	.	.	.
!	!	!	!	!	!	!	!	!	!	!	!LO:LB:g=original	!	!	!
=58	=58	=58	=58	=58	=58	=58	=58	=58	=58	=58	=58	=58	=58	=58
2d\	.	.	2ff#\	.	2dd\	.	2d\	Ki-	2d\	.	2d\	Ki-	2d\	2f#\
2c#\	6	.	2ee\	.	2aa\	.	2c#\	-ri-	2e\	.	2a\	-ri-	2A/	2e\
=59	=59	=59	=59	=59	=59	=59	=59	=59	=59	=59	=59	=59	=59	=59
2d\	.	.	2ff#\	.	4ff#\	.	2d\	-e	2f#\	-son	4f#\	-e	2d\	2f#\
.	.	.	.	.	4dd\	.	.	.	.	.	4d\	e-	.	.
2F#\	.	.	2a/	.	[2ddd\	.	2F#\	e-	2A/	e-	2dd\	.	2f#\	2a\
!	!	!	!	!	!	!	!LO:LB:g=original	!	!	!	!	!	!	!
=60	=60	=60	=60	=60	=60	=60	=60	=60	=60	=60	=60	=60	=60	=60
2G\	.	.	2b\	.	4ddd\]	.	(2G\	-lei-	2B\	-lei-	4dd\	[lei]-	2e\	2g\
.	.	.	.	.	8ccc#\L	.	.	.	.	.	8cc#\L	.	.	.
.	.	.	.	.	8bb\J	.	.	.	.	.	8b\J	.	.	.
2A\	.	.	2cc#\	.	4aa\	.	2A\)	.	2c#\	.	(4a\	.	2A/	2e\
.	.	.	.	.	4gg\	.	.	.	.	.	4g\)	.	.	.
=61	=61	=61	=61	=61	=61	=61	=61	=61	=61	=61	=61	=61	=61	=61
2D\	.	.	2dd\	.	4ff#\	.	2D\	-son	2d\	.	2f#\	-son	4d\	4d\
.	.	.	.	.	8dd\L	.	.	.	.	.	.	.	8d\L	8d\L
*	*	*	*	*	*custos:b	*	*	*	*	*	*	*	*	*
.	.	.	.	.	8ff#\J	.	.	.	.	.	.	.	8d\J	8d\J
!	!	!	!	!	!LO:LB:g=original	!	!	!	!	!	!	!	!	!
2F#\	6	.	4r	.	4aa\	.	2F#\	e-	2d\	.	[<2a\	e-	4d\	4d\
.	.	.	[<4aa\	.	4cccn\	.	.	.	.	.	.	.	4d\	4d\
!	!	!	!	!	!	!	!	!	!LO:LB:g=original	!	!	!	!	!
!	!	!	!LO:LB:g=original	!	!	!	!	!	!	!	!	!	!	!
=62	=62	=62	=62	=62	=62	=62	=62	=62	=62	=62	=62	=62	=62	=62
2.G\	8 9	.	4aa\]	.	4bb\	.	2.G\	-lei-	1d	.	2a\]	-lei-	2d\	2d\
.	.	.	8gg\L	.	2bb\	.	.	.	.	.	.	.	.	.
.	.	.	8ff#\J	.	.	.	.	.	.	.	.	.	.	.
.	.	.	4ee\	.	.	.	.	.	.	.	2g\	.	2r	2r
4F#\	.	.	4dd\	.	[4bb\	.	4F#\	.	.	.	.	.	.	.
!	!	!	!	!	!	!	!	!	!	!	!	!	!LO:LB:g=original	!
=63	=63	=63	=63	=63	=63	=63	=63	=63	=63	=63	=63	=63	=63	=63
2E\	6 5	.	2cc#\	.	4bb\]	.	2E\	.	[<1c#	.	[<1g	.	4r	4r
.	.	.	.	.	8cc#\L	.	.	.	.	.	.	.	4g\	4b\
.	.	.	.	.	8ee\J	.	.	.	.	.	.	.	.	.
2C#\	2	.	4r	.	4gg\	.	2C#/	.	.	.	.	.	4g\	4b\
.	.	.	[4gg\	.	4bb\	.	.	.	.	.	.	.	[4g\	4b\
=64	=64	=64	=64	=64	=64	=64	=64	=64	=64	=64	=64	=64	=64	=64
2.F#\	8 9	.	4gg\]	.	4aa\	.	2.F#\	.	1c#]	.	2g\]	.	4g\]	2a\
.	.	.	8ff#\L	.	2aa\	.	.	.	.	.	.	.	4f#\	.
.	.	.	8ee\J	.	.	.	.	.	.	.	.	.	.	.
.	.	.	4dd\	.	.	.	.	.	.	.	[<2f#\	.	2r	2r
4E\	.	.	4cc#\	.	[4aa\	.	4E\	.	.	.	.	.	.	.
=65	=65	=65	=65	=65	=65	=65	=65	=65	=65	=65	=65	=65	=65	=65
2D/	6 5	.	2b\	.	4aa\]	.	2D/	.	[<1B	.	1f#_<	-son	4r	4r
.	.	.	.	.	8b\L	.	.	.	.	.	.	.	4f#\	4a\
.	.	.	.	.	8dd\J	.	.	.	.	.	.	.	.	.
2BB/	2	.	4r	.	4ff#\	.	2BB/	.	.	.	.	.	4f#\	4a\
.	.	.	[<4ff#\	.	4aa\	.	.	.	.	.	.	.	[4f#\	4a\
!	!	!	!	!	!	!	!	!	!	!	!LO:LB:g=original	!	!	!
!	!	!	!	!	!	!	!	!	!	!	!	!	!	!LO:LB:g=original
=66	=66	=66	=66	=66	=66	=66	=66	=66	=66	=66	=66	=66	=66	=66
2.E\	8 9	.	4ff#\]	.	4gg\	.	2.E\	.	1B]	.	2f#\]	.	4f#\]	2g\
.	.	.	8ee\L	.	2gg\	.	.	.	.	.	.	.	4e\	.
.	.	.	8dd\J	.	.	.	.	.	.	.	.	.	.	.
.	.	.	4cc#\	.	.	.	.	.	.	.	2e\	e-	2r	2r
4D\	.	.	4b\	.	[4gg\	.	4D\	.	.	.	.	.	.	.
=67	=67	=67	=67	=67	=67	=67	=67	=67	=67	=67	=67	=67	=67	=67
2C#/	6 5	.	2a/	.	4gg\]	.	2C#/	.	[<1A	.	1e	-lei-	4r	4r
.	.	.	.	.	8a\L	.	.	.	.	.	.	.	4e\	4g\
.	.	.	.	.	8cc#\J	.	.	.	.	.	.	.	.	.
2AA/	2	.	4r	.	4ee\	.	2AA/	.	.	.	.	.	4e\	4g\
.	.	.	[4ee\	.	4gg\	.	.	.	.	.	.	.	[4e\	4g\
!	!	!	!	!	!	!	!LO:LB:g=original	!	!	!	!	!	!	!
!LO:LB:g=original	!	!	!	!	!	!	!	!	!	!	!	!	!	!
=68	=68	=68	=68	=68	=68	=68	=68	=68	=68	=68	=68	=68	=68	=68
2D/	2	.	4ee\]	.	1ff#t	.	2D/	-son	2A/]	.	4e\	.	4e\]	1f#t
.	.	.	4dd\	.	.	.	.	.	.	.	[4d\	.	4d\	.
2GG#X/	.	.	[2dd\	.	.	.	2GG#X/	e-	2B/	.	2d\_<	.	2dT\	.
!	!	!	!LO:LB:g=original	!	!	!	!	!	!	!	!	!	!	!
=69	=69	=69	=69	=69	=69	=69	=69	=69	=69	=69	=69	=69	=69	=69
4AA/	.	.	4dd\]	.	4ee\	.	4AA/	-lei-	2A/	-son	4d\]	.	2A/	2e\
4A\	.	.	2cc#\	.	4a/	.	4A\	.	.	.	4c#\	.	.	.
4Gn\	4 2	.	.	.	4ee\	.	4Gn\	.	2A/	e-	4e\	.	2r	2r
!	!	!	!	!	!LO:SIC:s=4ff#	!	!	!	!	!	!	!	!	!
4F#\	6	.	[<4dd\	.	4gg\	.	4F#\	.	.	.	4f#\	.	.	.
=70	=70	=70	=70	=70	=70	=70	=70	=70	=70	=70	=70	=70	=70	=70
!	!	!	!	!	!	!	!	!	!	!	!	!	!LO:TX:a:t=4	!
2E\	2	.	4dd\]	.	2.gg\	.	2E\	-son	2B\	-lei-	2.g\	.	1r	1r
.	.	.	8ee\L	.	.	.	.	.	.	.	.	.	.	.
.	.	.	8dd\J	.	.	.	.	.	.	.	.	.	.	.
2A\	2	.	[>2cc#\	.	.	.	2A\	e-	[<2A\	.	.	.	.	.
.	.	.	.	.	8aa\L	.	.	.	.	.	8a\L	.	.	.
.	.	.	.	.	8gg\J	.	.	.	.	.	8g\J	.	.	.
!	!	!	!	!	!LO:LB:g=original	!	!	!	!	!	!	!	!	!
=71	=71	=71	=71	=71	=71	=71	=71	=71	=71	=71	=71	=71	=71	=71
[<1D	6 2	.	4cc#\]	.	1ff#	.	[<1D	-lei-	2A\]	.	1f#	.	1r	1r
.	.	.	8dd\L	.	.	.	.	.	.	.	.	.	.	.
.	.	.	8cc#\J	.	.	.	.	.	.	.	.	.	.	.
.	.	.	4b\	.	.	.	.	.	[2B\	.	.	.	.	.
.	.	.	4a\	.	.	.	.	.	.	.	.	.	.	.
!	!	!	!	!	!	!	!	!	!LO:LB:g=original	!	!	!	!	!
=72	=72	=72	=72	=72	=72	=72	=72	=72	=72	=72	=72	=72	=72	=72
4D\]	4 #2	.	2g#X/	.	1ee	.	4D\]	.	2B\]	.	[<1e	.	1r	1r
8E\L	.	.	.	.	.	.	8E\L	.	.	.	.	.	.	.
8D\J	.	.	.	.	.	.	8D\J	.	.	.	.	.	.	.
4C#/	.	.	[2a/	.	.	.	4C#/	.	2c#\	.	.	.	.	.
4AA/	6	.	.	.	.	.	4AA/	-son	.	.	.	.	.	.
=73	=73	=73	=73	=73	=73	=73	=73	=73	=73	=73	=73	=73	=73	=73
2F#\	6 2	.	2a/]	.	4.ee\	.	2F#\	ki-	2A\	.	2e\_	.	1r	1r
.	.	.	.	.	8dd\	.	.	.	.	.	.	.	.	.
2G#X\	6 5	.	2bT/	.	2ddT\	.	2G#X\	-ri-	2d\	.	2e\_	.	.	.
!	!	!	!	!	!	!	!	!	!	!	!	!	!LO:LB:g=original	!
=74	=74	=74	=74	=74	=74	=74	=74	=74	=74	=74	=74	=74	=74	=74
4A\	.	.	4cc#\	.	2cc#\	.	4A\	-e	4c#\	-son	4e\]	-son	4r	4r
4A\	.	.	8a\L	.	.	.	4A\	e-	4e\	e-	4a\	e-	8A/L	8e\L
.	.	.	8cc#\J	.	.	.	.	.	.	.	.	.	8A/J	8e\J
4c#\	.	.	4ee\	.	2r	.	(4c#\	-lei-	2e\	-lei-	2a\	-lei-	4A/	4e\
4A\	.	.	4aa\	.	.	.	4A\)	.	.	.	.	.	4A/	4e\
!	!	!	!	!	!	!	!	!	!	!	!LO:LB:g=original	!	!	!
!	!	!	!	!	!	!	!LO:LB:g=original	!	!	!	!	!	!	!
=75	=75	=75	=75	=75	=75	=75	=75	=75	=75	=75	=75	=75	=75	=75
4e\	#	.	4gg#X\	.	4r	.	4e\	-son	2e\	-son	2g#X\	.	2e\	2e\
4E\	.	.	4bb\	.	8ee\L	.	4E\	e-	.	.	.	.	.	.
.	.	.	.	.	8gg#X\J	.	.	.	.	.	.	.	.	.
4G#X\	.	.	2r	.	4bb\	.	4G#X\	-lei-	2e\	e-	2g#\	.	4r	4r
4E\	.	.	.	.	4ddd\	.	4E\	.	.	.	.	.	4e\	4g#X\
=76	=76	=76	=76	=76	=76	=76	=76	=76	=76	=76	=76	=76	=76	=76
4A\	.	.	4r	.	4ccc#\	.	4A\	.	1e	-lei-	1a	.	4e\	4a\
4AA\ 4A	.	.	8a\L	.	4eee\	.	4AA/	.	.	.	.	.	8A/L	8e\L
.	.	.	8cc#\J	.	.	.	.	.	.	.	.	.	8A/J	8e\J
4C#\ 4c#	.	.	4ee\	.	2r	.	4C#/	.	.	.	.	.	4A/	4e\
4AA\ 4A	.	.	4aa\	.	.	.	4AA/	.	.	.	.	.	4A/	4e\
=77	=77	=77	=77	=77	=77	=77	=77	=77	=77	=77	=77	=77	=77	=77
4E\ 4e	#	.	4gg#X\	.	4r	.	4E\	-son	2e\	-son	2g#X\	-son	2e\	2e\
4E\	.	.	4bb\	.	8ee\L	.	4E\	e-	.	.	.	.	.	.
.	.	.	.	.	8gg#X\J	.	.	.	.	.	.	.	.	.
4G#X\	.	.	4r	.	4bb\	.	4G#X\	-lei-	2B\	e-	2g#\	e-	4r	4r
4E\	.	.	4gg#X\	.	4ddd\	.	4E\	.	.	.	.	.	4e\	4g#X\
!	!	!	!	!	!	!	!	!	!	!	!	!	!	!LO:LB:g=original
!LO:LB:g=original	!	!	!	!	!	!	!	!	!	!	!	!	!	!
=78	=78	=78	=78	=78	=78	=78	=78	=78	=78	=78	=78	=78	=78	=78
4A\	.	.	2ee\	.	4ccc#\	.	4A\	-son	2c#\	-lei-	2a\	-lei-	2e\	2a\
4AA/	.	.	.	.	4ee\	.	4AA/	e-	.	.	.	.	.	.
[<2A\	6	.	4r	.	[2ff#t\	.	[2A\	-lei-	2f#\	.	2a\	.	2r	2r
.	.	.	4cc#\	.	.	.	.	.	.	.	.	.	.	.
!	!	!	!LO:LB:g=original	!	!	!	!	!	!	!	!	!	!	!
=79	=79	=79	=79	=79	=79	=79	=79	=79	=79	=79	=79	=79	=79	=79
2A\]	4 2	.	2.b/	.	4ff#\]	.	2A\]	.	2d#X\	.	1b	.	1r	1r
.	.	.	.	.	4dd#X\	.	.	.	.	.	.	.	.	.
[2G#X\	6	.	.	.	[<2ee\	.	[2G#X\	.	2e\	.	.	.	.	.
.	.	.	4e/	.	.	.	.	.	.	.	.	.	.	.
!	!	!	!	!	!	!	!	!	!LO:LB:g=original	!	!	!	!	!
=80	=80	=80	=80	=80	=80	=80	=80	=80	=80	=80	=80	=80	=80	=80
2G#\]	2	.	2.a/	.	4ee\]	.	2G#\]	.	2c#\	.	1a	.	1r	1r
.	.	.	.	.	4cc#\	.	.	.	.	.	.	.	.	.
[2F#\	6	.	.	.	[2ddn\	.	[2F#\	.	2dn\	.	.	.	.	.
.	.	.	4d/	.	.	.	.	.	.	.	.	.	.	.
!	!	!	!	!	!LO:LB:g=original	!	!	!	!	!	!	!	!	!
=81	=81	=81	=81	=81	=81	=81	=81	=81	=81	=81	=81	=81	=81	=81
2F#\]	#4 2	.	2.g#X/	.	4dd\]	.	2F#\]	.	2B\	.	1g#X	.	1r	1r
.	.	.	.	.	4b\	.	.	.	.	.	.	.	.	.
2E\	6|	.	.	.	[2cc#\	.	2E\	.	2c#\	.	.	.	.	.
.	.	.	4c#/	.	.	.	.	.	.	.	.	.	.	.
!	!	!	!	!	!	!	!LO:LB:g=original	!	!	!	!	!	!	!
=82	=82	=82	=82	=82	=82	=82	=82	=82	=82	=82	=82	=82	=82	=82
2E\	6 2	.	1f#	.	4cc#\]	.	2D/	.	2A\	.	1f#	.	1r	1r
.	.	.	.	.	2b/	.	.	.	.	.	.	.	.	.
2D#X\	6 5	.	.	.	.	.	2D#X/	.	2B\	.	.	.	.	.
.	.	.	.	.	4a/	.	.	.	.	.	.	.	.	.
=83	=83	=83	=83	=83	=83	=83	=83	=83	=83	=83	=83	=83	=83	=83
4E\	#	.	4B/	.	4g#X/	.	4E\	-son	4B\	-son	4e\	.	1r	1r
4E\	6	.	4g#X/	.	4ee\	.	4E\	e-	4r	.	4g#X\	.	.	.
4F#\	#	.	4a/	.	4dd#X\	.	4F#\	-lei-	2r	.	4a\	.	.	.
!	!	!	!	!	!	!	!LO:SIC:s=4G#	!	!	!	!	!	!	!
4G#X\	6 5	.	4b/	.	4ddn\	.	4G\	.	.	.	4b\	.	.	.
=84	=84	=84	=84	=84	=84	=84	=84	=84	=84	=84	=84	=84	=84	=84
4A\	.	.	4e/	.	4cc#\	.	4A\	-son	4r	.	4e\	-son	2r	2r
4A\	.	.	4cc#\	.	4aa\	.	4A\	e-	4c#\	e-	4a\	e-	.	.
4B\	6|	.	4dd\	.	4gg#X\	.	4B\	-lei-	4d\	.	4g#X\	.	4r	4r
4c#\	.	.	4ee\	.	4ggn\	.	4c#\	.	4e\	.	4a\	.	4A/	4e\
!	!	!	!	!	!	!	!	!	!	!	!LO:LB:g=original	!	!	!
=85	=85	=85	=85	=85	=85	=85	=85	=85	=85	=85	=85	=85	=85	=85
2d\	.	.	2a/	.	2ff#\	.	2d\	-son	2d\	-lei-	2a\	.	2d\	2f#\
2G#X\	.	.	2b/	.	8ee\L	.	2G#X\	e-	2B\	.	2g#X\	-lei-	2e\	2e\
.	.	.	.	.	8dd\	.	.	.	.	.	.	.	.	.
.	.	.	.	.	8cc#\	.	.	.	.	.	.	.	.	.
.	.	.	.	.	8b\J	.	.	.	.	.	.	.	.	.
=86	=86	=86	=86	=86	=86	=86	=86	=86	=86	=86	=86	=86	=86	=86
4A\	.	.	4e/	.	4cc#\	.	4A\	-lei-	4c#\	-son	4a\	-son	2A/	2e\
4A\	.	.	4cc#\	.	4aa\	.	4A\	.	4c#\	e-	4a\	e-	.	.
4B\	.	.	4dd\	.	4gg#X\	.	4B\	.	4d\	-lei-	4g#X\	-lei-	4r	4r
4c#\	.	.	4ee\	.	4ggn\	.	4c#\	.	4e\	.	4a\	.	4A/	4e\
!	!	!	!	!	!	!	!	!	!LO:LB:g=original	!	!	!	!	!
!	!	!	!	!	!	!	!	!	!	!	!	!	!LO:LB:g=original	!
=87	=87	=87	=87	=87	=87	=87	=87	=87	=87	=87	=87	=87	=87	=87
2d\	.	.	2a/	.	2ff#\	.	2d\	.	2d\	.	2a\	.	2d\	2f#\
2G#X\	6	.	2b/	.	8ee\L	.	2G#X\	.	2B\	.	4g#X\	.	2e\	2e\
.	.	.	.	.	8dd\	.	.	.	.	.	.	.	.	.
.	.	.	.	.	8cc#\	.	.	.	.	.	4e\	-son	.	.
.	.	.	.	.	8b\J	.	.	.	.	.	.	.	.	.
!LO:LB:g=original	!	!	!	!	!	!	!	!	!	!	!	!	!	!
=88	=88	=88	=88	=88	=88	=88	=88	=88	=88	=88	=88	=88	=88	=88
4A\	.	.	4e/	.	2a/	.	4A\	.	4c#\	.	2.a\	lei-	4e\	4e\
4F#\	.	.	2a/	.	.	.	(<4F#\	.	4c#\	.	.	.	8e\L	8e\L
.	.	.	.	.	.	.	.	.	.	.	.	.	8e\J	8e\J
!	!	!	!	!	!	!	!LO:LB:g=original	!	!	!	!	!	!	!
4D\	6 5	.	.	.	2bT/	.	4D\)	.	(4f#\	.	.	.	4e\	4e\
4E\	#	.	4g#X/	.	.	.	4E\	.	4e\)	.	4g#X\	-son	4e\	4e\
=89	=89	=89	=89	=89	=89	=89	=89	=89	=89	=89	=89	=89	=89	=89
!	!	!	!	!	!LO:SIC:s=2e	!	!	!	!	!	!	!	!	!
2AA/	.	.	2a/	.	2f#/	.	2AA/	-son	2e\	-son	2a\	ki-	2A/	2e\
!	!	!	!	!	!	!	!	!	!	!	!LO:SIC:s=2g#	!	!	!
2r	.	.	2g#X/	.	2ee\	.	2r	.	2r	.	2g\	-ri-	2r	2r
!	!	!	!LO:LB:g=original	!	!	!	!	!	!	!	!	!	!	!
=90	=90	=90	=90	=90	=90	=90	=90	=90	=90	=90	=90	=90	=90	=90
!	!	!	!	!	!	!	!	!	!	!	!	!	!LO:TX:t=P:problem=łuk nad 2	!
!	!	!	!	!	!	!	!	!	!	!	!	!	!LO:TX:a:t=2	!
1r	.	.	2a/	.	4cc#\	.	1r	.	1r	.	2a\	-e	1r	1r
.	.	.	.	.	4a/	.	.	.	.	.	.	.	.	.
.	.	.	2c#/	.	[<2aa\	.	.	.	.	.	2c#\	e-	.	.
!	!	!	!	!	!LO:LB:g=original	!	!	!	!	!	!	!	!	!
=91	=91	=91	=91	=91	=91	=91	=91	=91	=91	=91	=91	=91	=91	=91
1r	.	.	2d/	.	4aa\]	.	1r	.	1r	.	2d\	-lei-	1r	1r
.	.	.	.	.	8gg#X\L	.	.	.	.	.	.	.	.	.
.	.	.	.	.	8ff#\J	.	.	.	.	.	.	.	.	.
.	.	.	2e/	.	4ee\	.	.	.	.	.	2e\	.	.	.
.	.	.	.	.	4dd\	.	.	.	.	.	.	.	.	.
=92	=92	=92	=92	=92	=92	=92	=92	=92	=92	=92	=92	=92	=92	=92
4r	.	.	8a/L	.	8cc#\L	.	4r	.	1r	.	8a\L	.	4r	4r
.	.	.	8b/J	.	8dd\J	.	.	.	.	.	8b\J	.	.	.
4AA/	.	.	2cc#\	.	2ee\	.	4AA/	e-	.	.	2cc#\	.	8A/L	8e\L
.	.	.	.	.	.	.	.	.	.	.	.	.	8A/J	8e\J
[<2A\	.	.	.	.	.	.	[<2A\	-lei-	.	.	.	.	4A/	4e\
.	.	.	4ee\	.	4ccc#\	.	.	.	.	.	4a\	.	4A/	4e\
!	!	!	!	!	!	!	!	!	!	!	!LO:LB:g=original	!	!	!
!	!	!	!	!	!	!	!	!	!	!	!	!	!	!LO:LB:g=original
=93	=93	=93	=93	=93	=93	=93	=93	=93	=93	=93	=93	=93	=93	=93
4A\]	4 2_	.	4dd\	.	2bb\	.	4A\]	.	1r	.	2f#\	.	2d\	2f#\
8G#X\L	.	.	2dd\	.	.	.	8G#X\L	.	.	.	.	.	.	.
8F#\J	.	.	.	.	.	.	8F#\J	.	.	.	.	.	.	.
4E\	x 3_	.	.	.	2gg#X\	.	4E\	.	.	.	2g#X\	.	2e\	2g#Xt\
4D\	.	.	4b\	.	.	.	4D\	.	.	.	.	.	.	.
=94	=94	=94	=94	=94	=94	=94	=94	=94	=94	=94	=94	=94	=94	=94
4C#/	x 6	.	4a\	.	4aa\	.	4C#/	.	4r	.	4a\	-son	2e\	2a\
4AA/	.	.	8a\L	.	8cc#\L	.	4AA/	-son	8A\L	e-	4r	.	.	.
.	.	.	8b\J	.	8dd\J	.	.	.	8B\J	.	.	.	.	.
2r	.	.	4cc#\	.	4ee\	.	2r	.	4c#\	-lei-	2r	.	2r	2r
.	.	.	4dd\	.	4ff#\	.	.	.	4d\	.	.	.	.	.
=95	=95	=95	=95	=95	=95	=95	=95	=95	=95	=95	=95	=95	=95	=95
4r	.	.	2ee\	.	2gg\	.	4r	.	2e\	.	4r	.	4r	4r
*	*	*	*	*	*	*	*	*ij	*	*	*	*ij	*	*
4c#\	6 n5	.	.	.	.	.	4c#\	e-	.	.	4b\	e-	4e\	4g\
4d\	.	.	2dd\	.	2ff#\	.	4d\	-lei-	2d\	.	4b\	-le-	2d\	2f#t\
4G#X\	2	.	.	.	.	.	4G#X\	.	.	.	4b\	-i-	.	.
=96	=96	=96	=96	=96	=96	=96	=96	=96	=96	=96	=96	=96	=96	=96
!	!	!	!	!	!LO:TX:t=P:problem=brak taktu	!	!	!	!	!	!	!	!	!
2A\	.	.	4cc#\	.	1ryy	.	2A\	-son	4c#\	-son	2a\	-son	2A/	2e\
.	.	.	8a\L	.	.	.	.	.	8A\L	e-	.	.	.	.
.	.	.	8b\J	.	.	.	.	.	8B\J	.	.	.	.	.
2r	.	.	4cc#\	.	.	.	2r	.	4c#\	-lei-	2r	.	4r	4r
.	.	.	4dd\	.	.	.	.	.	4d\	.	.	.	4f#\	4a\
!	!	!	!	!	!	!	!	!	!LO:LB:g=original	!	!	!	!	!
!	!	!	!	!	!	!	!LO:LB:g=original	!	!	!	!	!	!	!
!	!	!	!	!	!	!	!	!	!	!	!	!	!LO:LB:g=original	!
=97	=97	=97	=97	=97	=97	=97	=97	=97	=97	=97	=97	=97	=97	=97
4r	.	.	4ee\	.	2ee\	.	4r	.	2.e\	.	4r	.	2.e\	2g\
4c#\	6 n5	.	2ee\	.	.	.	4c#\	e-	.	.	4a\	e-	.	.
4d\	.	.	.	.	2dd\	.	4d\	-lei-	.	.	4a\	-le-	.	2f#\
4G#X\	2	.	[4dd\	.	.	.	4G#X\	.	[<4d\	.	4b\	-i-	4d\	.
*	*	*	*	*	*	*	*	*Xij	*	*	*	*	*	*
!LO:LB:g=original	!	!	!	!	!	!	!	!	!	!	!	!	!	!
=98	=98	=98	=98	=98	=98	=98	=98	=98	=98	=98	=98	=98	=98	=98
!	!	!	!	!	!LO:TX:t=P:problem=brak taktu	!	!	!	!	!	!	!	!	!
4A\	6 4	.	4dd\]	.	1ryy	.	4A\	-son	4d\]	-son	4a\	-son	2A/	4e\
4A#X\	5	.	2cc#\	.	.	.	4A#X\	e-	2c#\	e-	2f#\	e-	.	4r
4B\	9	.	.	.	.	.	(4B\	-lei-	.	.	.	.	2r	2r
4E#X\	2 #	.	4b\	.	.	.	4E#X\)	.	4B\	-lei-	4g#X\	-lei-	.	.
*	*	*	*	*	*	*	*	*	*	*	*	*Xij	*	*
=99	=99	=99	=99	=99	=99	=99	=99	=99	=99	=99	=99	=99	=99	=99
!	!	!	!	!	!	!	!	!	!	!	!	!	!	!LO:TX:t=P:problem=łuk nad 3
!	!	!	!	!	!	!	!	!	!	!	!	!	!	!LO:TX:a:t=3
4F#\	#	.	4a#X/	.	4cc#\	.	4F#\	-son	4A#X\	.	4f#\	-son	1r	1r
*	*	*	*	*	*	*	*	*ij	*	*	*	*	*	*
4A#X\	6 5	.	2cc#\	.	4ee\	.	4A#X\	e-	4c#\	.	4f#\	e-	.	.
4B\	9	.	.	.	2ddT\	.	4B\	-lei-	(4c#\	.	4f#\	-lei-	.	.
4E#X\	2 #	.	4bT\	.	.	.	4E#X\	.	4B\)	.	4g#X\	.	.	.
!	!	!	!LO:LB:g=original	!	!	!	!	!	!	!	!	!	!	!
=100	=100	=100	=100	=100	=100	=100	=100	=100	=100	=100	=100	=100	=100	=100
4F#\	.	.	4a#X/	.	2cc#\	.	2F#\	-son	4A#X\	-son	4f#\	-son	1r	1r
*clefC3	*	*	*	*	*	*	*	*Xij	*	*	*	*	*	*
!LO:TX:t=P:problem=znaki przykluczowe ponownie zapisane po zmianie klucza	!	!	!	!	!	!	!	!	!	!	!	!	!	!
2f#\	.	.	2f#/	.	.	.	.	.	4r	.	2f#\	ki-	.	.
.	.	.	.	.	2r	.	2r	.	2r	.	.	.	.	.
4f#\	.	.	4f#/	.	.	.	.	.	.	.	4f#\	-ri-	.	.
!	!	!	!	!	!	!	!	!	!	!	!LO:LB:g=original	!	!	!
=101	=101	=101	=101	=101	=101	=101	=101	=101	=101	=101	=101	=101	=101	=101
*^	*	*	*	*	*	*	*	*	*	*	*	*	*	*
!	!	!	!	!	!	!	!	!	!	!	!	!	!	!	!LO:TX:a:t=Verte Cito
4d\	4ryy	.	.	4d/	.	4r	.	1r	.	1r	.	4d\	-e	1r	1r
!	!	!	!	!	!	!	!	!	!	!	!	!LO:SIC:s=4B	!	!	!
2b/	4B\	.	.	4B/	.	2b/	.	.	.	.	.	4c#\	e-	.	.
.	4d\	.	.	4d/	.	.	.	.	.	.	.	(4d\	-lei-	.	.
4b/	4e\	.	.	4e/	.	4b/	.	.	.	.	.	4e\)	.	.	.
=102	=102	=102	=102	=102	=102	=102	=102	=102	=102	=102	=102	=102	=102	=102	=102
4a#X/	4f#\	.	.	4f#/	.	4a#X/	.	4r	.	1r	.	4f#\	-son	4r	4r
*clefF4	*	*	*	*	*	*	*	*	*	*	*	*	*	*	*
!LO:TX:t=P:problem=znaki przykluczowe ponownie zapisane po zmianie klucza	!	!	!	!	!	!	!	!	!	!	!	!	!	!	!
2F#\	4ryy	#	.	4a#X/	.	4f#/	.	2F#\	ki-	.	.	4a#X\	e-	8F#/L	8F#/L
.	.	.	.	.	.	.	.	.	.	.	.	.	.	8F#/J	8F#/J
.	2ryy	.	.	4g#X/	.	4b/	.	.	.	.	.	4g#X\	-lei-	4F#/	4F#/
!	!	!	!	!LO:TX:t=P:problem=# below	!	!	!	!	!	!	!	!	!	!	!
4F#\	.	.	.	4a#X/	.	4cc#/	.	4F#\	-ri-	.	.	4a#X\	.	4F#/	4F#/
*v	*v	*	*	*	*	*	*	*	*	*	*	*	*	*	*
!	!	!	!	!	!	!LO:LB:g=original	!	!	!	!	!	!	!	!
=103	=103	=103	=103	=103	=103	=103	=103	=103	=103	=103	=103	=103	=103	=103
4D\	6	.	1b	.	1ddT	.	4D/	-e-	1r	.	1b	.	2F#/	2F#/
4BB\	.	.	.	.	.	.	4BB/	-lei-	.	.	.	.	.	.
4D\	.	.	.	.	.	.	4D/	.	.	.	.	.	2r	2r
4E\	.	.	.	.	.	.	4E/	.	.	.	.	.	.	.
!	!	!	!	!	!	!	!LO:LB:g=original	!	!	!	!	!	!	!
=104	=104	=104	=104	=104	=104	=104	=104	=104	=104	=104	=104	=104	=104	=104
4F#\	.	.	4a#X/	.	4cc#\	.	4F#\	-son	4r	.	2a#X\	-son	2F#/	2F#/
*clefC4	*	*	*	*	*	*	*	*	*	*	*	*	*	*
4c#\ 4f#	.	.	4a#/	.	4cc#\	.	4r	.	4f#\	e-	.	.	.	.
4d\	6	.	4b/	.	4dd\	.	2r	.	4d\	-lei-	4r	.	2r	2r
4B\	.	.	[>4dd/	.	4ff#\	.	.	.	4B\	.	4dd\	e-	.	.
!LO:LB:g=original	!	!	!	!	!	!	!	!	!	!	!	!	!	!
=105	=105	=105	=105	=105	=105	=105	=105	=105	=105	=105	=105	=105	=105	=105
!	!	!	!	!	!	!	!	!	!	!	!LO:TUP:a:problem=klamra łukowa	!	!	!
*	*	*	*tuplet	*	*	*	*	*	*	*	*	*	*	*
1e	2:8:2	.	(12dd\L]	.	[<1ggT	.	1r	.	1e	.	12dd\L	-lei-	1r	1r
.	.	.	12b\	.	.	.	.	.	.	.	12b\	.	.	.
.	.	.	12an\J)	.	.	.	.	.	.	.	12a\J	.	.	.
!	!	!	!	!	!	!	!	!	!	!	!LO:TUP:a:problem=klamra łukowa	!	!	!
!	!	!	!	!	!	!	!	!	!	!	!LO:N:vis=8	!	!	!
.	.	.	4g/	.	.	.	.	.	.	.	4g\L	.	.	.
!	!	!	!	!	!	!	!	!	!	!	!LO:N:vis=8	!	!	!
.	.	.	4ee\	.	.	.	.	.	.	.	4ee\	.	.	.
!	!	!	!	!	!	!	!	!	!	!	!LO:N:vis=8	!	!	!
.	.	.	4dd\	.	.	.	.	.	.	.	4dd\J	.	.	.
!	!	!	!	!	!	!	!	!	!LO:LB:g=original	!	!	!	!	!
=106	=106	=106	=106	=106	=106	=106	=106	=106	=106	=106	=106	=106	=106	=106
!	!	!	!	!	!	!	!	!	!	!	!	!	!	!
*	*	*	*	*	*tuplet	*	*	*	*	*	*	*	*	*
1A	2:8:2	.	1cc#	.	(12gg\L]	.	1r	.	1A	.	[<1cc#	.	1r	1r
.	.	.	.	.	12ee\	.	.	.	.	.	.	.	.	.
.	.	.	.	.	12dd\J)	.	.	.	.	.	.	.	.	.
.	.	.	.	.	4cc#`\	.	.	.	.	.	.	.	.	.
.	.	.	.	.	4aa`\	.	.	.	.	.	.	.	.	.
.	.	.	.	.	4gg`\	.	.	.	.	.	.	.	.	.
=107	=107	=107	=107	=107	=107	=107	=107	=107	=107	=107	=107	=107	=107	=107
!	!	!	!LO:SIC:s=8cc#	!	!	!	!	!	!	!	!	!	!	!
!	!	!	!	!	!	!	!	!	!	!	!LO:TUP:a:problem=klamra łukowa	!	!	!
*	*	*	*	*	*	*	*	*	*	*	*12\right	*	*	*
1d	2	.	(12dd\L	.	[<1ff#	.	1r	.	1d	.	12cc#\L]	.	1r	1r
.	.	.	12a\	.	.	.	.	.	.	.	12a\	.	.	.
.	.	.	12g\J)	.	.	.	.	.	.	.	12g\J	.	.	.
!	!	!	!	!	!	!	!	!	!	!	!LO:N:vis=8	!	!	!
.	.	.	4f#`/	.	.	.	.	.	.	.	4f#\L	.	.	.
!	!	!	!	!	!	!	!	!	!	!	!LO:N:vis=8	!	!	!
.	.	.	4dd`\	.	.	.	.	.	.	.	4dd\	.	.	.
!	!	!	!	!	!	!	!	!	!	!	!LO:N:vis=8	!	!	!
.	.	.	4cc#`\	.	.	.	.	.	.	.	4cc#\J	.	.	.
!	!	!	!	!	!	!	!	!	!	!	!LO:LB:g=original	!	!	!
=108	=108	=108	=108	=108	=108	=108	=108	=108	=108	=108	=108	=108	=108	=108
!	!	!	!	!	!	!	!	!	!	!	!	!	!	!
1G	2	.	[1b	.	(12ff#\L]	.	1r	.	1G	.	[<1b	.	1r	1r
.	.	.	.	.	12dd\	.	.	.	.	.	.	.	.	.
.	.	.	.	.	12cc#\J)	.	.	.	.	.	.	.	.	.
.	.	.	.	.	4b`\	.	.	.	.	.	.	.	.	.
.	.	.	.	.	4gg`\	.	.	.	.	.	.	.	.	.
.	.	.	.	.	4ff#`\	.	.	.	.	.	.	.	.	.
*	*	*	*Xtuplet	*	*	*	*	*	*	*	*	*	*	*
=109	=109	=109	=109	=109	=109	=109	=109	=109	=109	=109	=109	=109	=109	=109
!	!	!	!	!	!	!	!	!	!	!	!LO:TUP:a:problem=klamra łukowa	!	!	!
1c#	2	.	(12b/L]	.	1ee	.	1r	.	1c#	.	12b\L]	.	1r	1r
.	.	.	12g/	.	.	.	.	.	.	.	12g\	.	.	.
.	.	.	12f#/J)	.	.	.	.	.	.	.	12f#\J	.	.	.
!	!	!	!	!	!	!	!	!	!	!	!LO:N:vis=8	!	!	!
.	.	.	4e/	.	.	.	.	.	.	.	4e\L	.	.	.
!	!	!	!	!	!	!	!	!	!	!	!LO:N:vis=8	!	!	!
.	.	.	4cc#\	.	.	.	.	.	.	.	4cc#\	.	.	.
!	!	!	!	!	!	!	!	!	!	!	!LO:N:vis=8	!	!	!
.	.	.	4b\	.	.	.	.	.	.	.	4b\J	.	.	.
!	!	!	!LO:LB:g=original	!	!	!	!	!	!	!	!	!	!	!
=110	=110	=110	=110	=110	=110	=110	=110	=110	=110	=110	=110	=110	=110	=110
!	!	!	!	!	!	!	!	!	!	!	!	!	!LO:TX:a:t=Verte Cito	!
1F#	2 #	.	(>1a#X	.	(12ee\L	.	1r	.	[1F#	.	1a#X	.	1r	1r
.	.	.	.	.	12cc#\	.	.	.	.	.	.	.	.	.
.	.	.	.	.	12b\J)	.	.	.	.	.	.	.	.	.
.	.	.	.	.	4a#X/	.	.	.	.	.	.	.	.	.
.	.	.	.	.	4ff#`\	.	.	.	.	.	.	.	.	.
.	.	.	.	.	4ee`\	.	.	.	.	.	.	.	.	.
!	!	!	!	!	!	!	!	!	!	!	!	!	!LO:LB:g=original	!
=111	=111	=111	=111	=111	=111	=111	=111	=111	=111	=111	=111	=111	=111	=111
*clefF4	*	*	*	*	*	*	*	*	*	*	*	*	*	*
!LO:TX:t=P:problem=znaki przykluczowe ponownie zapisane	!	!	!	!	!	!	!	!	!	!	!	!	!	!
2BB/	.	.	2b/)	.	2dd\	.	2BB/	Ki-	1F#_	.	2b\	.	2F#/	2F#/
2F#\	#	.	2a#X/	.	2cc#\	.	2F#\	-ri-	.	.	2a#X\	.	2F#/	2F#/
=112	=112	=112	=112	=112	=112	=112	=112	=112	=112	=112	=112	=112	=112	=112
4D/	6	.	2b/	.	2b\	.	4D/	-e	2F#/]	-son	2b\	-son	2F#/	2F#/
4BB/	.	.	.	.	.	.	4BB/	e-	.	.	.	.	.	.
[2B\	.	.	2r	.	4r	.	[<2B\	-lei-	2f#\	e-	2r	.	4r	4r
.	.	.	.	.	4dd\	.	.	.	.	.	.	.	4F#/	4F#/
!	!	!	!	!	!LO:LB:g=original	!	!	!	!	!	!	!	!	!
=113	=113	=113	=113	=113	=113	=113	=113	=113	=113	=113	=113	=113	=113	=113
4B\]	4 2_	.	1r	.	4.cc#\	.	4B\]	.	(2e\	-lei-	1r	.	4F#/	4F#/
8A\L	.	.	.	.	.	.	8A\L	.	.	.	.	.	8F#/L	8F#/L
8G\J	.	.	.	.	(16dd\LL	.	8G\J	.	.	.	.	.	8F#/J	8F#/J
.	.	.	.	.	16ee\JJ)	.	.	.	.	.	.	.	.	.
4F#\	x #_	.	.	.	4a#X/	.	4F#\	.	2c#\)	.	.	.	4F#/	4F#/
4E\	.	.	.	.	4cc#/	.	4E\	.	.	.	.	.	4F#/	4F#/
=114	=114	=114	=114	=114	=114	=114	=114	=114	=114	=114	=114	=114	=114	=114
2D/	6	.	2b\	.	2f#/	.	2D\	.	2d\	-son	2B/	Ki-	2F#/	2F#/
2AA#X/	6 5	.	2gg\	.	2r	.	2AA#X/	.	2r	.	2e\	-ri-	2r	2r
=115	=115	=115	=115	=115	=115	=115	=115	=115	=115	=115	=115	=115	=115	=115
!	!	!	!	!	!	!	!	!	!LO:TX:t=P:problem=łuk nad 2.	!	!	!	!	!
!	!	!	!	!	!	!	!	!	!LO:TX:a:t=2.	!	!	!	!	!
4BB/	.	.	4dd\	.	2b\	.	2BB/	-son	1r	.	4d\	-e	2F#/	2F#/
8D/L	.	.	4b\	.	.	.	.	.	.	.	4B/	e-	.	.
8C#/J	.	.	.	.	.	.	.	.	.	.	.	.	.	.
4D/	.	.	[<2bb\	.	2ff#\	.	2r	.	.	.	[<2b\	-lei-	2r	2r
4BB/	.	.	.	.	.	.	.	.	.	.	.	.	.	.
!	!	!	!	!	!	!	!	!	!	!	!LO:LB:g=original	!	!	!
!	!	!	!	!	!	!	!LO:LB:g=original	!	!	!	!	!	!	!
!	!	!	!	!	!	!	!	!	!	!	!	!	!	!LO:LB:g=original
=116	=116	=116	=116	=116	=116	=116	=116	=116	=116	=116	=116	=116	=116	=116
4r	.	.	4bb\]	.	4dd\	.	1r	.	1r	.	4b\]	.	1r	1r
4E\	5	.	8aa\L	.	4b\	.	.	.	.	.	8a\L	.	.	.
.	.	.	8gg\J	.	.	.	.	.	.	.	8g\J	.	.	.
4D\	6	.	4ff#\	.	[<2bb\	.	.	.	.	.	4f#\	.	.	.
4C#\	2	.	4ee\	.	.	.	.	.	.	.	4e\	.	.	.
!	!	!	!	!	!	!	!	!	!LO:LB:g=original	!	!	!	!	!
=117	=117	=117	=117	=117	=117	=117	=117	=117	=117	=117	=117	=117	=117	=117
4BB/	.	.	4dd\	.	4bb\]	.	4r	.	4r	.	4d\	.	1r	1r
4E\	6 5	.	2b/	.	8aa#X\L	.	4E\	e-	4e\	Ki-	4g\	.	.	.
.	.	.	.	.	8gg\J	.	.	.	.	.	.	.	.	.
4F#\	5 #4r	.	.	.	4ff#\	.	(4F#\	-lei-	4d\	-ri-	4f#\	.	.	.
4FF#/	.	.	4a#X/	.	4ee\	.	4FF#/)	.	4c#\	-e	4e\	.	.	.
=118	=118	=118	=118	=118	=118	=118	=118	=118	=118	=118	=118	=118	=118	=118
4BB/	.	.	4f#/	.	4dd\	.	4BB/	-son	4d\	e-	4f#\	.	1r	1r
4BB/	#	.	4dd#X\	.	4bb\	.	4BB/	e-	2e\	.	4b\	.	.	.
4C#/	6|	.	4ee\	.	4aa#X\	.	(4C#/	-lei-	.	.	4a#X\	.	.	.
!LO:TX:t=P:problem=# below	!	!	!	!	!	!	!	!	!	!	!LO:SIC:s=4gn	!	!	!
4D#X/	6 n5	.	4ff#\	.	4aan\	.	4D#X/)	.	4B\	.	4a#\	.	.	.
=119	=119	=119	=119	=119	=119	=119	=119	=119	=119	=119	=119	=119	=119	=119
2E\	3	.	2b\	.	8gg\L	.	2E\	-son	1B	.	2g\	.	1r	1r
.	.	.	.	.	8ff#\	.	.	.	.	.	.	.	.	.
.	.	.	.	.	8ee\	.	.	.	.	.	.	.	.	.
.	.	.	.	.	8dd\J	.	.	.	.	.	.	.	.	.
2G\	6	.	8ee\L	.	8ee\L	.	2G\	e-	.	.	2e\	.	.	.
.	.	.	8dd\	.	8dd\	.	.	.	.	.	.	.	.	.
.	.	.	8cc#\	.	8cc#\	.	.	.	.	.	.	.	.	.
.	.	.	8b\J	.	8b\J	.	.	.	.	.	.	.	.	.
=120	=120	=120	=120	=120	=120	=120	=120	=120	=120	=120	=120	=120	=120	=120
4A\	.	.	4cc#\	.	4cc#\	.	4A\	-lei-	4c#\	.	4a\	-son	1r	1r
4AA/	.	.	4cc#\	.	4aa\	.	4AA/	.	2e\	.	4a\	e-	.	.
4BB/	6|	.	4dd\	.	4gg#X\	.	4BB/	.	.	.	4g#X\	-lei-	.	.
4C#/	6 n5	.	4ee\	.	4ggn\	.	4C#/	.	4c#\	.	4gn\	.	.	.
!	!	!	!LO:LB:g=original!	!	!	!	!	!	!	!	!	!	!	!
=121	=121	=121	=121	=121	=121	=121	=121	=121	=121	=121	=121	=121	=121	=121
2D\	.	.	2a/	.	8ff#\L	.	2D\	-son	1A	.	2f#\	-son	1r	1r
.	.	.	.	.	8ee\	.	.	.	.	.	.	.	.	.
.	.	.	.	.	8dd\	.	.	.	.	.	.	.	.	.
.	.	.	.	.	8cc#\J	.	.	.	.	.	.	.	.	.
!	!	!	!	!	!LO:LB:g=original	!	!	!	!	!	!	!	!	!
2F#\	6	.	8dd\L	.	8dd\L	.	2F#\	e-	.	.	2d\	e-	.	.
.	.	.	8cc#\	.	8cc#\	.	.	.	.	.	.	.	.	.
.	.	.	8b\	.	8b\	.	.	.	.	.	.	.	.	.
.	.	.	8a\J	.	8a\J	.	.	.	.	.	.	.	.	.
=122	=122	=122	=122	=122	=122	=122	=122	=122	=122	=122	=122	=122	=122	=122
4G\	.	.	4b\	.	4b\	.	4G\	-lei-	1B	.	2.g\	-lei-	1r	1r
4F#\	.	.	4a\	.	4dd\	.	4F#\	.	.	.	.	.	.	.
4E\	.	.	4b\	.	8gg\L	.	4E\	.	.	.	.	.	.	.
.	.	.	.	.	8ff#\	.	.	.	.	.	.	.	.	.
4G\	.	.	4ee\	.	8ee\	.	4G\	.	.	.	4f#\	.	.	.
.	.	.	.	.	8dd\J	.	.	.	.	.	.	.	.	.
!	!	!	!	!	!	!	!LO:LB:g=original	!	!	!	!	!	!	!
=123	=123	=123	=123	=123	=123	=123	=123	=123	=123	=123	=123	=123	=123	=123
2A\	.	.	4ee\	.	4cc#\	.	2A\	-son	2c#\	-lei-	2a\	.	1r	1r
.	.	.	4r	.	4ee\	.	.	.	.	.	.	.	.	.
2C#/	.	.	2r	.	8aa\L	.	2C#/	e-	2e\	.	2g\	.	.	.
.	.	.	.	.	8gg\	.	.	.	.	.	.	.	.	.
.	.	.	.	.	8ff#\	.	.	.	.	.	.	.	.	.
.	.	.	.	.	8ee\J	.	.	.	.	.	.	.	.	.
!	!	!	!	!	!	!	!	!	!	!	!LO:LB:g=original	!	!	!
=124	=124	=124	=124	=124	=124	=124	=124	=124	=124	=124	=124	=124	=124	=124
2D/	.	.	2a/	.	4ff#\	.	2D/	-lei-	2d\	-son	2f#\	-son	1r	1r
.	.	.	.	.	4ee\	.	.	.	.	.	.	.	.	.
2BB/	.	.	2dd\	.	4ff#\	.	2BB/	.	2r	.	2r	.	.	.
.	.	.	.	.	4gg#X\	.	.	.	.	.	.	.	.	.
!	!	!	!	!	!	!	!	!	!LO:LB:g=original	!	!	!	!	!
=125	=125	=125	=125	=125	=125	=125	=125	=125	=125	=125	=125	=125	=125	=125
2AA/	5	.	4cc#\	.	2aa\	.	2AA/	-son	1r	.	1r	.	1r	1r
.	.	.	4a\	.	.	.	.	.	.	.	.	.	.	.
2C#/	6|	.	[<2aa\	.	4r	.	2C#/	e-	.	.	.	.	.	.
.	.	.	.	.	4ee\	.	.	.	.	.	.	.	.	.
=126	=126	=126	=126	=126	=126	=126	=126	=126	=126	=126	=126	=126	=126	=126
2D\	6 5	.	4aa\]	.	2ff#\	.	(2D\	-lei-	1r	.	1r	.	1r	1r
.	.	.	8gg#X\L	.	.	.	.	.	.	.	.	.	.	.
.	.	.	8ff#\J	.	.	.	.	.	.	.	.	.	.	.
2E\	#	.	4ee\	.	2g#X/	.	2E\)	.	.	.	.	.	.	.
.	.	.	4dd\	.	.	.	.	.	.	.	.	.	.	.
!LO:LB:g=original	!	!	!	!	!	!	!	!	!	!	!	!	!	!
=127	=127	=127	=127	=127	=127	=127	=127	=127	=127	=127	=127	=127	=127	=127
4AA/	.	.	8dd\L	.	2a/	.	4AA/	-son	1r	.	1r	.	1r	1r
.	.	.	8a\	.	.	.	.	.	.	.	.	.	.	.
4A\	.	.	8cc#\	.	.	.	4A\	e-	.	.	.	.	.	.
.	.	.	8a\J	.	.	.	.	.	.	.	.	.	.	.
4B\	2	.	8dd\L	.	2r	.	4B\	-lei-	.	.	.	.	.	.
.	.	.	8a\	.	.	.	.	.	.	.	.	.	.	.
4c#\	n5	.	8ee\	.	.	.	4c#\	.	.	.	.	.	.	.
.	.	.	8a\J	.	.	.	.	.	.	.	.	.	.	.
=128	=128	=128	=128	=128	=128	=128	=128	=128	=128	=128	=128	=128	=128	=128
!LO:TX:t=P:problem=błędnie wpisane 2 takty pauzy w Vl I	!	!	!LO:TX:t=P:problem=błędnie wpisane 2 takty pauzy w Vl I	!	!LO:TX:t=P:problem=błędnie wpisane 2 takty pauzy	!	!LO:TX:t=P:problem=błędnie wpisane 2 takty pauzy w Vl I	!	!LO:TX:t=P:problem=błędnie wpisane 2 takty pauzy w Vl I	!	!LO:TX:t=P:problem=błędnie wpisane 2 takty pauzy w Vl I	!	!LO:TX:t=P:problem=błędnie wpisane 2 takty pauzy w Vl I	!LO:TX:t=P:problem=błędnie wpisane 2 takty pauzy w Vl I
1ryy	.	.	1ryy	.	1r	.	1ryy	.	1ryy	.	1ryy	.	1ryy	1ryy
=129	=129	=129	=129	=129	=129	=129	=129	=129	=129	=129	=129	=129	=129	=129
1ryy	.	.	1ryy	.	1r	.	1ryy	.	1ryy	.	1ryy	.	1ryy	1ryy
=130	=130	=130	=130	=130	=130	=130	=130	=130	=130	=130	=130	=130	=130	=130
*clefC4	*	*	*	*	*	*	*	*	*	*	*	*	*	*
!LO:TX:t=P::problem=znaki przykluczowe, kolejność&colon; c# F#	!	!	!	!	!	!	!	!	!	!	!	!	!	!
2d\	.	.	2ff#\	.	2dd\	.	2d\	-son	2d\	Ki-	2d\	Ki-	1r	1r
2c#\	6	.	2ee\	.	2aa\	.	2r	.	2c#\	-ri-	2a\	-ri-	.	.
=131	=131	=131	=131	=131	=131	=131	=131	=131	=131	=131	=131	=131	=131	=131
2d\	.	.	2ff#\	.	4ff#\	.	1r	.	2d\	-e	4f#\	-e	1r	1r
.	.	.	.	.	4dd\	.	.	.	.	.	4d\	e-	.	.
4r	.	.	4r	.	[<2ddd\	.	.	.	4r	.	[<2dd\	-lei-	.	.
4F#/	.	.	4a/	.	.	.	.	.	4F#/	e-	.	.	.	.
!	!	!	!	!	!LO:LB:g=original	!	!	!	!	!	!	!	!	!
=132	=132	=132	=132	=132	=132	=132	=132	=132	=132	=132	=132	=132	=132	=132
!	!	!	!	!	!	!	!LO:TX:b:t=Verte	!	!	!	!	!	!	!
2G/	6 5	.	2b\	.	4ddd\]	.	1r	.	2G/	-lei-	4dd\]	.	1r	1r
.	.	.	.	.	8ccc#\L	.	.	.	.	.	8cc#\L	.	.	.
.	.	.	.	.	8bb\J	.	.	.	.	.	8b\J	.	.	.
2A/	.	.	2cc#\	.	4aa\	.	.	.	2A/	.	4a\	.	.	.
.	.	.	.	.	4gg\	.	.	.	.	.	4g\	.	.	.
!	!	!	!	!	!	!	!LO:LB:g=original	!	!	!	!	!	!	!
=133	=133	=133	=133	=133	=133	=133	=133	=133	=133	=133	=133	=133	=133	=133
*clefF4	*	*	*	*	*	*	*	*	*	*	*	*	*	*
!LO:TX:t=P:problem=znaki przykluczowe	!	!	!	!	!	!	!	!	!	!	!	!	!	!
2D\	.	.	2dd\	.	2ff#\	.	2D\	Ki-	2A/	-son	2f#\	.	2d\	2f#\
2A\	.	.	2cc#t\	.	2eeT\	.	2A\	-ri-	2B/	e-	2e\	.	2A/	2e\
!	!	!	!LO:LB:g=original	!	!	!	!	!	!	!	!	!	!	!
=134	=134	=134	=134	=134	=134	=134	=134	=134	=134	=134	=134	=134	=134	=134
4F#\	6	.	8dd\L	.	8ff#\L	.	4F#\	-e	2A\	-lei-	2d\	-son	2d\	2f#\
.	.	.	8ee\J	.	8aa\J	.	.	.	.	.	.	.	.	.
4D\	.	.	2ff#\	.	2aa\	.	4D\	e-	.	.	.	.	.	.
[2d\	.	.	.	.	.	.	[<2d\	-lei-	2f#\	.	2a\	e-	4r	4r
.	.	.	4ff#\	.	4ddd\	.	.	.	.	.	.	.	4f#\	4a\
=135	=135	=135	=135	=135	=135	=135	=135	=135	=135	=135	=135	=135	=135	=135
4d\]	4 2_	.	2gg\	.	2bb\	.	4d\]	.	1e	.	2g\	-lei-	2e\	2g\
8c#\L	.	.	.	.	.	.	8c#\L	.	.	.	.	.	.	.
8B\J	.	.	.	.	.	.	8B\J	.	.	.	.	.	.	.
4A\	x 3_	.	2ee\	.	2ccc#\	.	4A\	.	.	.	2a\	.	2A/	2e\
4G\	.	.	.	.	.	.	4G\	.	.	.	.	.	.	.
!	!	!	!	!	!	!	!	!	!	!	!	!	!LO:LB:g=original	!
=136	=136	=136	=136	=136	=136	=136	=136	=136	=136	=136	=136	=136	=136	=136
2F#\	.	.	2dd\	.	4ddd\	.	2F#\	-son	2f#\	-son	2a\	.	2d\	4f#\
.	.	.	.	.	8dd\L	.	.	.	.	.	.	.	.	8d\L
.	.	.	.	.	8ff#\J	.	.	.	.	.	.	.	.	8d\J
2D\	.	.	4r	.	4aa\	.	2D\	e-	2f#\	e-	[2a\	.	4d\	4d\
.	.	.	[4aa\	.	4cccn\	.	.	.	.	.	.	.	4d\	4d\
!	!	!	!	!	!	!	!	!	!	!	!LO:LB:g=original	!	!	!
=137	=137	=137	=137	=137	=137	=137	=137	=137	=137	=137	=137	=137	=137	=137
2.G\	8 9	.	4aa\]	.	4bb\	.	2.G\	-lei-	1d	-lei-	2a\]	.	2d\	2d\
.	.	.	8gg\L	.	2bb\	.	.	.	.	.	.	.	.	.
.	.	.	8ff#\J	.	.	.	.	.	.	.	.	.	.	.
.	.	.	4ee\	.	.	.	.	.	.	.	2g\	-son	2r	2r
4F#\	.	.	4dd\	.	[<4bb\	.	4F#\	.	.	.	.	.	.	.
!	!	!	!	!	!	!	!	!	!LO:LB:g=original	!	!	!	!	!
=138	=138	=138	=138	=138	=138	=138	=138	=138	=138	=138	=138	=138	=138	=138
!	!	!	!	!	!	!	!LO:N:vis=2	!	!	!	!	!	!	!
2E\	6 5	.	2cc#\	.	4bb\]	.	2.E\	-son	[<1c#	.	2r	.	4r	4r
.	.	.	.	.	8cc#\L	.	.	.	.	.	.	.	4g\	4b\
.	.	.	.	.	8ee\J	.	.	.	.	.	.	.	.	.
*	*	*	*	*	*	*	*	*	*	*	*	*ij	*	*
2C#\	2	.	4r	.	4gg\	.	.	.	.	.	[<2g\	e-	4g\	4b\
.	.	.	[<4gg\	.	4bb\	.	4C#/	e-	.	.	.	.	[4g\	4b\
!LO:LB:g=original	!	!	!	!	!	!	!	!	!	!	!	!	!	!
=139	=139	=139	=139	=139	=139	=139	=139	=139	=139	=139	=139	=139	=139	=139
2.F#\	8 9	.	4gg\]	.	4aa\	.	2.F#\	-lei-	1c#]	.	2g\]	-lei-	4g\]	2a\
.	.	.	8ff#\L	.	2aa\	.	.	.	.	.	.	.	4f#\	.
.	.	.	8ee\J	.	.	.	.	.	.	.	.	.	.	.
.	.	.	4dd\	.	.	.	.	.	.	.	2f#\	-son	2r	2r
4E\	.	.	4cc#\	.	[<4aa\	.	4E\	.	.	.	.	.	.	.
!	!	!	!	!	!	!	!	!	!	!	!	!	!	!LO:LB:g=original
=140	=140	=140	=140	=140	=140	=140	=140	=140	=140	=140	=140	=140	=140	=140
2D/	6 5	.	2b\	.	4aa\]	.	2D/	-son	[<1B	.	2r	.	4r	4r
.	.	.	.	.	8b\L	.	.	.	.	.	.	.	4f#\	4a\
*	*	*	*	*	*custos:b	*	*	*	*	*	*	*	*	*
.	.	.	.	.	8dd\J	.	.	.	.	.	.	.	.	.
2BB/	2	.	4r	.	4ff#\	.	2BB/	e-	.	.	2f#\	e-	4f#\	4a\
.	.	.	[<4ff#\	.	4aa\	.	.	.	.	.	.	.	[4f#\	4a\
!	!	!	!	!	!LO:LB:g=original	!	!	!	!	!	!	!	!	!
=141	=141	=141	=141	=141	=141	=141	=141	=141	=141	=141	=141	=141	=141	=141
2.E\	8 9	.	4ff#\]	.	4gg\	.	2.E\	-lei-	1B]	.	2f#\	-lei-	4f#\]	2g\
.	.	.	8ee\L	.	2gg\	.	.	.	.	.	.	.	4e\	.
.	.	.	8dd\J	.	.	.	.	.	.	.	.	.	.	.
.	.	.	4cc#\	.	.	.	.	.	.	.	2e\	-son	2r	2r
4D\	.	.	4b\	.	[<4gg\	.	4D\	.	.	.	.	.	.	.
*	*	*	*	*	*	*	*	*	*	*	*	*Xij	*	*
!	!	!	!	!	!	!	!LO:LB:g=original	!	!	!	!	!	!	!
=142	=142	=142	=142	=142	=142	=142	=142	=142	=142	=142	=142	=142	=142	=142
2C#/	6 5	.	2a/	.	4gg\]	.	2C#/	son	1A	.	2r	.	4r	4r
.	.	.	.	.	8a/L	.	.	.	.	.	.	.	4e\	4g\
.	.	.	.	.	8cc#/J	.	.	.	.	.	.	.	.	.
2AA/	2	.	4r	.	4ee\	.	2AA/	e-	.	.	[<2e\	e-	4e\	4g\
.	.	.	[4ee\	.	4gg\	.	.	.	.	.	.	.	[4e\	4g\
!	!	!	!LO:LB:g=original	!	!	!	!	!	!	!	!	!	!	!
=143	=143	=143	=143	=143	=143	=143	=143	=143	=143	=143	=143	=143	=143	=143
4D\	.	.	4ee\]	.	4ff#\	.	4D\	-lei-	2A\	-son	4e\]	-lei-	4e\]	2f#\
4D\	.	.	4dd\	.	8dd\L	.	4D\	.	.	.	4d\	.	4d\	.
.	.	.	.	.	8ff#\J	.	.	.	.	.	.	.	.	.
4F#\	.	.	2r	.	4aa\	.	4F#\	.	2d\	e-	[<2a\	.	4r	4r
4D\	.	.	.	.	4ddd\	.	4D\	.	.	.	.	.	4d\	4f#\
!	!	!	!	!	!	!	!	!	!	!	!	!	!LO:LB:g=original	!
=144	=144	=144	=144	=144	=144	=144	=144	=144	=144	=144	=144	=144	=144	=144
4A\	.	.	4r	.	4ccc#\	.	4A\	.	1c#	-lei-	1a_<	.	4A/	4e\
4AA/	.	.	8a/L	.	4eee\	.	4AA/	.	.	.	.	.	8A/L	8e\L
.	.	.	8cc#/J	.	.	.	.	.	.	.	.	.	8A/J	8e\J
4C#/	.	.	4ee\	.	2r	.	4C#/	.	.	.	.	.	4A/	4e\
4AA/	.	.	4gg\	.	.	.	4AA/	.	.	.	.	.	4A/	4e\
=145	=145	=145	=145	=145	=145	=145	=145	=145	=145	=145	=145	=145	=145	=145
4D\	.	.	4ff#\	.	4r	.	4D\	.	2d\	.	2a\]	.	2d\	2f#\
4D\	.	.	4aa\	.	8dd\L	.	4D\	.	.	.	.	.	.	.
.	.	.	.	.	8ff#\J	.	.	.	.	.	.	.	.	.
4F#\	.	.	2r	.	4aa\	.	4F#\	.	2d\	.	[<2a\	.	4r	4r
4D\	.	.	.	.	4ddd\	.	4D\	.	.	.	.	.	4d\	4f#\
!	!	!	!	!	!	!	!	!	!	!	!LO:LB:g=original	!	!	!
=146	=146	=146	=146	=146	=146	=146	=146	=146	=146	=146	=146	=146	=146	=146
4A\	.	.	4r	.	4ccc#\	.	4A\	.	1c#	.	1a]	.	4A/	4e\
4AA/	.	.	8a/L	.	4eee\	.	4AA/	.	.	.	.	.	8A/L	8e\L
.	.	.	8cc#/J	.	.	.	.	.	.	.	.	.	8A/J	8e\J
4C#/	.	.	4ee\	.	2r	.	4C#/	.	.	.	.	.	4A/	4e\
4AA/	.	.	4gg\	.	.	.	4AA/	.	.	.	.	.	4A/	4e\
!	!	!	!	!	!	!	!	!	!	!	!	!	!	!LO:LB:g=original
=147	=147	=147	=147	=147	=147	=147	=147	=147	=147	=147	=147	=147	=147	=147
2D\	.	.	2ff#\	.	4r	.	2D\	-son	2d\	-son	2a\	.	2d\	2f#\
.	.	.	.	.	4aa\	.	.	.	.	.	.	.	.	.
[2d\	6	.	4r	.	[<2bb\	.	[2d\	e-	4r	.	[2b\	.	2r	2r
.	.	.	4ff#\	.	.	.	.	.	4f#\	e-	.	.	.	.
=148	=148	=148	=148	=148	=148	=148	=148	=148	=148	=148	=148	=148	=148	=148
2d\]	4 2	.	2.ee\	.	4bb\]	.	2d\]	-lei-	2g#X\	-lei-	2b\]	.	1r	1r
.	.	.	.	.	4gg#X\	.	.	.	.	.	.	.	.	.
2c#\	.	.	.	.	[<2aa\	.	[2c#\	.	2a\	.	[<2a\	.	.	.
.	.	.	4a/	.	.	.	.	.	.	.	.	.	.	.
!	!	!	!	!	!	!	!	!	!LO:LB:g=original	!	!	!	!	!
!	!	!	!	!	!LO:LB:g=original	!	!	!	!	!	!	!	!	!
=149	=149	=149	=149	=149	=149	=149	=149	=149	=149	=149	=149	=149	=149	=149
2c#\	4 2	.	2.dd\	.	4aa\]	.	2c#\]	.	2f#\	.	2a\]	.	1r	1r
.	.	.	.	.	4ff#\	.	.	.	.	.	.	.	.	.
[2B\	6	.	.	.	[<2ggn\	.	[<2B\	.	2gn\	.	[<2g\	.	.	.
.	.	.	4g/	.	.	.	.	.	.	.	.	.	.	.
!	!	!	!	!	!	!	!LO:LB:g=original	!	!	!	!	!	!	!
!LO:LB:g=original	!	!	!	!	!	!	!	!	!	!	!	!	!	!
=150	=150	=150	=150	=150	=150	=150	=150	=150	=150	=150	=150	=150	=150	=150
2B\]	4 2	.	2.cc#\	.	4gg\]	.	2B\]	.	2e\	.	2g\]	.	1r	1r
.	.	.	.	.	4ee\	.	.	.	.	.	.	.	.	.
[2A\	6	.	.	.	[<2ff#\	.	[<2A\	.	2f#\	.	[<2f#\	.	.	.
.	.	.	4f#/	.	.	.	.	.	.	.	.	.	.	.
=151	=151	=151	=151	=151	=151	=151	=151	=151	=151	=151	=151	=151	=151	=151
2A\]	4 2	.	1b	.	4ff#\]	.	2A\]	.	2d\	.	2f#\]	.	1r	1r
.	.	.	.	.	2ee\	.	.	.	.	.	.	.	.	.
4G\	6	.	.	.	.	.	4G\	.	2B\	.	[<2e\	.	.	.
4G#X\	.	.	.	.	4dd\	.	4G#X\	.	.	.	.	.	.	.
=152	=152	=152	=152	=152	=152	=152	=152	=152	=152	=152	=152	=152	=152	=152
4A\	.	.	4e/	.	4cc#\	.	4A\	-son	4A\	-son	4e\]	-son	2r	2r
4A\	.	.	4cc#\	.	4aa\	.	4A\	e-	2e\	e-	4a\	e-	.	.
4B\	6|	.	4dd\	.	4gg#X\	.	(4B\	-lei-	.	.	4g#X\	-lei-	4r	4r
4c#\	5	.	4ee\	.	4ggn\	.	4c#\)	.	4c#\	-lei-	4gn\	.	4A/	4e\
!	!	!	!LO:LB:g=original	!	!	!	!	!	!	!	!	!	!	!
=153	=153	=153	=153	=153	=153	=153	=153	=153	=153	=153	=153	=153	=153	=153
4d\	.	.	4a/	.	4ff#\	.	4d\	-son	4A\	.	4f#\	-son	2d\	2f#\
4D\	.	.	4ff#\	.	4ddd\	.	4D/	e-	4d\	.	4a\	e-	.	.
4E\	.	.	4gg\	.	4ccc#\	.	4E\	-lei-	4c#X\	.	4g\	-lei-	4r	4r
4F#\	n5	.	4aa\	.	4cccn\	.	4F#\	.	4cn\	.	4a\	.	4d\	4a\
!	!	!	!	!	!	!	!	!	!	!	!LO:LB:g=original	!	!	!
=154	=154	=154	=154	=154	=154	=154	=154	=154	=154	=154	=154	=154	=154	=154
2G\	.	.	2dd\	.	2bb\	.	2G\	-son	2B\	.	2b\	.	2d\	2g\
2C#/	.	.	2ee\	.	8aa\L	.	2C#/	e-	2A\	.	2g\	.	2A/	2e\
.	.	.	.	.	8gg\	.	.	.	.	.	.	.	.	.
.	.	.	.	.	8ff#\	.	.	.	.	.	.	.	.	.
.	.	.	.	.	8ee\J	.	.	.	.	.	.	.	.	.
=155	=155	=155	=155	=155	=155	=155	=155	=155	=155	=155	=155	=155	=155	=155
4D\	.	.	4ff#\	.	4dd\	.	4D\	-lei-	4A\	-son	4f#\	-son	2d\	2f#\
4D\	.	.	4ff#\	.	4ddd\	.	4D\	.	4d\	e-	4a\	e-	.	.
4E\	6	.	4gg\	.	4ccc#\	.	4E\	.	4c#\	-lei-	4g\	-lei-	4r	4r
4F#\	n5	.	4aa\	.	4cccn\	.	4F#\	.	4cn\	.	4a\	.	4d\	4a\
!	!	!	!	!	!	!	!	!	!	!	!	!	!LO:LB:g=original	!
=156	=156	=156	=156	=156	=156	=156	=156	=156	=156	=156	=156	=156	=156	=156
2G\	.	.	2dd\	.	2bb\	.	2G\	-son	2B\	.	2b\	.	2d\	2g\
2C#/	6	.	2ee\	.	8aa\L	.	2C#/	e-	2A\	.	2g\	.	2A/	2e\
.	.	.	.	.	8gg\	.	.	.	.	.	.	.	.	.
.	.	.	.	.	8ff#\	.	.	.	.	.	.	.	.	.
.	.	.	.	.	8ee\J	.	.	.	.	.	.	.	.	.
!	!	!	!	!	!	!	!	!	!LO:LB:g=original	!	!	!	!	!
!	!	!	!	!	!	!	!LO:LB:g=original	!	!	!	!	!	!	!
=157	=157	=157	=157	=157	=157	=157	=157	=157	=157	=157	=157	=157	=157	=157
4D\	.	.	4dd\	.	4ff#`\	.	4D\	-lei-	4A\	-son	4f#\	-son	2d\	2f#\
4d\	.	.	2a/	.	(4ff#\	.	4d\	.	4A\	e-	2a\	e-	.	.
4c#\	6	.	.	.	4ee\	.	4c#\	.	4c#\	-lei-	.	.	4r	4r
4cn\	4 n2	.	4dd\	.	4ff#\)	.	4cn\	.	4d\	.	4a\	-lei-	4d\	4d\
!	!	!	!	!	!LO:LB:g=original	!	!	!	!	!	!	!	!	!
=158	=158	=158	=158	=158	=158	=158	=158	=158	=158	=158	=158	=158	=158	=158
2B\	6	.	1cc#t	.	2gg\	.	2B\	-son	1d	.	2b\	.	4d\	4d\
.	.	.	.	.	.	.	.	.	.	.	.	.	8d\L	8d\L
.	.	.	.	.	.	.	.	.	.	.	.	.	8d\J	8d\J
2B-X\	6|	.	.	.	2gg#X\	.	2B-X\	e-	.	.	2dd\	.	4d\	4d\
.	.	.	.	.	.	.	.	.	.	.	.	.	4d\	4d\
!	!	!	!	!	!	!	!	!	!	!	!	!	!	!LO:LB:g=original
=159	=159	=159	=159	=159	=159	=159	=159	=159	=159	=159	=159	=159	=159	=159
4A\	#	.	4cc#\	.	4aa\	.	4A\	-lei-	4e\	.	4cc#\	-son	4A/	4e\
4D\	.	.	4dd\	.	4ff#\	.	4D\	.	4d\	.	4a\	e-	4d/	4f#\
4A\	.	.	2cc#t\	.	2eeT\	.	4A\	.	2c#\	.	2a\	-lei-	2A/	2eT\
4AA/	.	.	.	.	.	.	4AA/	.	.	.	.	.	.	.
!LO:LB:g=original	!	!	!	!	!	!	!	!	!	!	!	!	!	!
=160	=160	=160	=160	=160	=160	=160	=160	=160	=160	=160	=160	=160	=160	=160
2D\	6 8 4	.	4dd\	.	4dd\	.	2D/	-son	4d\	.	4a\	-son	2d\	2f#\
.	.	.	4f#/	.	4dd\	.	.	.	4f#\	.	4a\	e-	.	.
2D\	n2 5	.	4e/	.	4cc#\	.	2D/	e-	4e\	.	4g\	-lei-	4r	4r
.	.	.	4f#/	.	4ccn\	.	.	.	4f#\	.	4a\	.	4D/	4D/
!	!	!	!	!	!	!	!	!	!	!	!LO:LB:g=original	!	!	!
=161	=161	=161	=161	=161	=161	=161	=161	=161	=161	=161	=161	=161	=161	=161
2G\	.	.	2g/	.	2b/	.	2G\	-lei-	2d\	-son	2g\	.	4D/	4D/
.	.	.	.	.	.	.	.	.	.	.	.	.	8D/L	8D/L
.	.	.	.	.	.	.	.	.	.	.	.	.	8D/J	8D/J
2D\	.	.	2f#/	.	2a/	.	2D\	.	2d\	e-	2f#\	.	4D/	4D/
.	.	.	.	.	.	.	.	.	.	.	.	.	4D/	4D/
=162	=162	=162	=162	=162	=162	=162	=162	=162	=162	=162	=162	=162	=162	=162
1GG	.	.	1g	.	1b	.	1GG	.	[1d	-lei-	1g	.	1D	2D/
.	.	.	.	.	.	.	.	.	.	.	.	.	.	2D/
=163	=163	=163	=163	=163	=163	=163	=163	=163	=163	=163	=163	=163	=163	=163
1GG	.	.	1g	.	1b	.	1GG	.	1d]	.	1g	.	1D	1D
=164	=164	=164	=164	=164	=164	=164	=164	=164	=164	=164	=164	=164	=164	=164
!	!	!	!	!	!LO:N:vis=2	!	!	!	!LO:TX:t=P:problem= fermata na górze i na dole systemu	!	!	!	!	!
1D	.	.	1f#	.	1a	.	1D	.	[1d;	-son	1f#	.	1D	1D
=165	=165	=165	=165	=165	=165	=165	=165	=165	=165	=165	=165	=165	=165	=165
!	!	!	!	!	!LO:N:vis=2	!	!	!	!	!	!	!	!	!
1D;	.	.	1f#;	.	1a;	.	1D;	-son	1d]	.	1f#;	-son	2D/	1D;
.	.	.	.	.	.	.	.	.	.	.	.	.	2r	.
==	==	==	==	==	==	==	==	==	==	==	==	==	==	==
*-	*-	*-	*-	*-	*-	*-	*-	*-	*-	*-	*-	*-	*-	*-
!!!system-decoration: [(s1,s2)][(s3,s4,s5)][(s6,s7)][(s8)]
!!!RDF**kern: > = above
!!!RDF**kern: < = below
!!!ENC: Katarzyna Serwa
!!!END: 2020-12-24
!!!ENC: Natalia Wrzos
!!!END: 2022-01-08
